; generated by Slic3r 1.2.9 on 2016-09-04 at 15:21:14

; external perimeters extrusion width = 0.40mm
; perimeters extrusion width = 0.40mm
; infill extrusion width = 0.40mm
; solid infill extrusion width = 0.40mm
; top infill extrusion width = 0.40mm

M107
M190 S50 ; set bed temperature
G28 ; home all axes
G90 ; use absolute coordinates
G21 ; set units to millimeters
G92 E0
M82 ; use absolute distances for extrusion
M109 S190 ; wait for temperature to be reached
G1 E5 F400 ; prime the nozzle
G21 ; set units to millimeters
G90 ; use absolute coordinates
M82 ; use absolute distances for extrusion
G92 E0
G1 E-3.00000 F3900.00000
G92 E0
G1 Z0.180 F9000.000
G1 X69.224 Y76.548 F9000.000
G1 E3.00000 F3900.00000
M204 S500
G1 X70.127 Y75.830 E3.04245 F2520.000
G1 X70.299 Y75.713 E3.05009
G1 X71.120 Y75.226 E3.08524
G1 X72.026 Y74.820 E3.12177
G1 X73.133 Y74.466 E3.16456
G1 X74.110 Y74.290 E3.20109
G1 X74.423 Y74.254 E3.21267
G1 X75.282 Y74.205 E3.24435
G1 X124.718 Y74.205 E5.06356
G1 X125.164 Y74.218 E5.08000
G1 X126.347 Y74.356 E5.12381
G1 X126.937 Y74.483 E5.14603
G1 X127.748 Y74.736 E5.17729
G1 X127.999 Y74.830 E5.18718
G1 X128.904 Y75.238 E5.22369
G1 X129.895 Y75.846 E5.26648
G1 X130.791 Y76.562 E5.30866
G1 X131.497 Y77.282 E5.34579
G1 X132.108 Y78.065 E5.38232
G1 X132.712 Y79.058 E5.42512
G1 X133.117 Y79.964 E5.46164
G1 X133.471 Y81.071 E5.50439
G1 X133.650 Y82.067 E5.54162
G1 X133.688 Y82.412 E5.55442
G1 X133.735 Y83.253 E5.58540
G1 X133.735 Y111.887 E6.63914
G1 X133.719 Y117.226 E6.83563
G1 X133.581 Y118.409 E6.87945
G1 X133.453 Y119.002 E6.90175
G1 X133.201 Y119.810 E6.93291
G1 X133.107 Y120.062 E6.94280
G1 X132.699 Y120.967 E6.97934
G1 X132.091 Y121.958 E7.02213
G1 X131.376 Y122.853 E7.06429
G1 X130.655 Y123.559 E7.10143
G1 X129.873 Y124.170 E7.13796
G1 X128.880 Y124.774 E7.18073
G1 X127.974 Y125.180 E7.21726
G1 X126.867 Y125.534 E7.26004
G1 X125.890 Y125.710 E7.29657
G1 X125.577 Y125.746 E7.30816
G1 X124.717 Y125.795 E7.33984
G1 X75.283 Y125.795 E9.15904
G1 X74.836 Y125.782 E9.17549
G1 X73.653 Y125.644 E9.21929
G1 X73.063 Y125.516 E9.24154
G1 X72.252 Y125.264 E9.27278
G1 X72.001 Y125.170 E9.28266
G1 X71.096 Y124.762 E9.31917
G1 X70.105 Y124.154 E9.36197
G1 X69.209 Y123.438 E9.40415
G1 X68.503 Y122.718 E9.44128
G1 X67.892 Y121.935 E9.47781
G1 X67.288 Y120.942 E9.52061
G1 X66.883 Y120.036 E9.55713
G1 X66.528 Y118.929 E9.59989
G1 X66.352 Y117.951 E9.63645
G1 X66.317 Y117.639 E9.64804
G1 X66.268 Y116.784 E9.67954
G1 X66.265 Y86.242 E10.80350
G1 X66.268 Y83.213 E10.91496
G1 X66.290 Y82.612 E10.93707
G1 X66.391 Y81.750 E10.96902
G1 X66.546 Y80.999 E10.99725
G1 X66.893 Y79.938 E11.03830
G1 X67.301 Y79.033 E11.07483
G1 X67.909 Y78.042 E11.11762
G1 X68.521 Y77.262 E11.15413
G1 X69.187 Y76.585 E11.18906
G1 X69.580 Y76.947 F9000.000
G1 X70.428 Y76.272 E11.22895 F2520.000
G1 X70.599 Y76.155 E11.23658
G1 X71.370 Y75.698 E11.26954
G1 X72.212 Y75.321 E11.30351
G1 X73.263 Y74.985 E11.34410
G1 X74.171 Y74.821 E11.37806
G1 X74.484 Y74.785 E11.38965
G1 X75.282 Y74.740 E11.41909
G1 X124.718 Y74.740 E13.23830
G1 X125.294 Y74.761 E13.25953
G1 X126.255 Y74.883 E13.29516
G1 X126.807 Y75.002 E13.31594
G1 X127.561 Y75.237 E13.34501
G1 X127.812 Y75.331 E13.35489
G1 X128.653 Y75.710 E13.38884
G1 X129.593 Y76.287 E13.42944
G1 X130.434 Y76.960 E13.46905
G1 X131.098 Y77.638 E13.50399
G1 X131.666 Y78.366 E13.53795
G1 X132.240 Y79.308 E13.57855
G1 X132.616 Y80.150 E13.61250
G1 X132.953 Y81.200 E13.65307
G1 X133.119 Y82.126 E13.68768
G1 X133.157 Y82.471 E13.70047
G1 X133.200 Y83.253 E13.72928
G1 X133.200 Y111.887 E14.78300
G1 X133.185 Y117.195 E14.97836
G1 X133.055 Y118.317 E15.01993
G1 X132.935 Y118.871 E15.04078
G1 X132.701 Y119.622 E15.06975
G1 X132.607 Y119.874 E15.07964
G1 X132.227 Y120.716 E15.11361
G1 X131.650 Y121.656 E15.15420
G1 X130.978 Y122.496 E15.19380
G1 X130.299 Y123.160 E15.22874
G1 X129.572 Y123.728 E15.26270
G1 X128.630 Y124.302 E15.30328
G1 X127.788 Y124.679 E15.33725
G1 X126.738 Y125.015 E15.37784
G1 X125.829 Y125.179 E15.41180
G1 X125.516 Y125.215 E15.42338
G1 X124.717 Y125.260 E15.45283
G1 X75.283 Y125.260 E17.27204
G1 X74.706 Y125.239 E17.29327
G1 X73.745 Y125.117 E17.32890
G1 X73.193 Y124.998 E17.34970
G1 X72.440 Y124.763 E17.37874
G1 X72.188 Y124.669 E17.38863
G1 X71.347 Y124.290 E17.42257
G1 X70.407 Y123.713 E17.46318
G1 X69.566 Y123.040 E17.50279
G1 X68.902 Y122.362 E17.53772
G1 X68.334 Y121.634 E17.57169
G1 X67.760 Y120.692 E17.61229
G1 X67.384 Y119.850 E17.64624
G1 X67.047 Y118.800 E17.68681
G1 X66.883 Y117.891 E17.72080
G1 X66.848 Y117.578 E17.73239
G1 X66.802 Y116.784 E17.76167
G1 X66.800 Y86.242 E18.88561
G1 X66.802 Y83.213 E18.99707
G1 X66.824 Y82.644 E19.01804
G1 X66.917 Y81.842 E19.04774
G1 X67.065 Y81.129 E19.07453
G1 X67.394 Y80.126 E19.11339
G1 X67.773 Y79.284 E19.14735
G1 X68.350 Y78.344 E19.18795
G1 X68.919 Y77.618 E19.22189
G1 X69.543 Y76.984 E19.25463
G1 X69.936 Y77.346 F9000.000
G1 X70.729 Y76.714 E19.29195 F2520.000
G1 X70.900 Y76.597 E19.29958
G1 X71.619 Y76.171 E19.33035
G1 X72.398 Y75.822 E19.36174
G1 X73.392 Y75.503 E19.40014
G1 X74.231 Y75.352 E19.43153
G1 X74.544 Y75.316 E19.44312
G1 X75.282 Y75.274 E19.47034
G1 X124.718 Y75.274 E21.28955
G1 X125.262 Y75.295 E21.30962
G1 X126.004 Y75.381 E21.33708
G1 X126.676 Y75.520 E21.36235
G1 X127.373 Y75.737 E21.38922
G1 X127.625 Y75.832 E21.39910
G1 X128.402 Y76.182 E21.43048
G1 X129.291 Y76.728 E21.46889
G1 X130.077 Y77.358 E21.50593
G1 X130.699 Y77.994 E21.53868
G1 X131.224 Y78.666 E21.57007
G1 X131.767 Y79.558 E21.60848
G1 X132.115 Y80.336 E21.63986
G1 X132.434 Y81.329 E21.67824
G1 X132.587 Y82.185 E21.71023
G1 X132.626 Y82.530 E21.72303
G1 X132.666 Y83.253 E21.74965
G1 X132.652 Y117.164 E22.99757
G1 X132.528 Y118.225 E23.03690
G1 X132.417 Y118.741 E23.05631
G1 X132.200 Y119.435 E23.08308
G1 X132.106 Y119.687 E23.09298
G1 X131.755 Y120.465 E23.12438
G1 X131.209 Y121.354 E23.16278
G1 X130.580 Y122.139 E23.19980
G1 X129.944 Y122.761 E23.23255
G1 X129.271 Y123.286 E23.26395
G1 X128.380 Y123.829 E23.30234
G1 X127.602 Y124.178 E23.33373
G1 X126.608 Y124.497 E23.37213
G1 X125.769 Y124.648 E23.40352
G1 X125.456 Y124.684 E23.41511
G1 X124.717 Y124.726 E23.44233
G1 X75.283 Y124.726 E25.26154
G1 X74.738 Y124.705 E25.28161
G1 X73.996 Y124.619 E25.30906
G1 X73.323 Y124.480 E25.33435
G1 X72.627 Y124.263 E25.36120
G1 X72.375 Y124.168 E25.37109
G1 X71.598 Y123.818 E25.40246
G1 X70.709 Y123.272 E25.44087
G1 X69.923 Y122.642 E25.47792
G1 X69.301 Y122.006 E25.51066
G1 X68.776 Y121.334 E25.54205
G1 X68.233 Y120.442 E25.58047
G1 X67.885 Y119.664 E25.61185
G1 X67.566 Y118.671 E25.65023
G1 X67.414 Y117.831 E25.68164
G1 X67.337 Y116.783 E25.72029
G1 X67.334 Y86.243 E26.84420
G1 X67.337 Y83.214 E26.95565
G1 X67.358 Y82.675 E26.97549
G1 X67.444 Y81.934 E27.00295
G1 X67.583 Y81.260 E27.02829
G1 X67.894 Y80.313 E27.06496
G1 X68.245 Y79.535 E27.09635
G1 X68.791 Y78.646 E27.13476
G1 X69.317 Y77.975 E27.16613
G1 X69.899 Y77.383 E27.19667
G1 E24.19667 F3900.00000
G92 E0
G1 X115.520 Y103.510 F9000.000
G1 E3.00000 F3900.00000
G1 X125.923 Y103.510 E3.25883 F1764.000
G1 X125.929 Y116.768 E3.58870
G1 X125.895 Y117.055 E3.59587
G1 X125.805 Y117.309 E3.60258
G1 X125.660 Y117.537 E3.60929
G1 X125.469 Y117.727 E3.61601
G1 X125.239 Y117.871 E3.62277
G1 X125.034 Y117.947 E3.62821
G1 X124.704 Y117.991 E3.63648
G1 X75.294 Y117.991 E4.86580
G1 X75.008 Y117.958 E4.87296
G1 X74.754 Y117.868 E4.87968
G1 X74.526 Y117.723 E4.88639
G1 X74.336 Y117.532 E4.89311
G1 X74.191 Y117.301 E4.89987
G1 X74.115 Y117.097 E4.90531
G1 X74.071 Y116.767 E4.91358
G1 X74.077 Y101.750 E5.28720
G1 X84.480 Y101.750 E5.54603
G1 X84.480 Y91.350 E5.80478
G1 X74.077 Y91.350 E6.06361
G1 X74.071 Y83.232 E6.26560
G1 X74.105 Y82.945 E6.27277
G1 X74.195 Y82.691 E6.27948
G1 X74.340 Y82.463 E6.28619
G1 X74.531 Y82.273 E6.29291
G1 X74.761 Y82.129 E6.29967
G1 X74.966 Y82.053 E6.30510
G1 X75.296 Y82.009 E6.31338
G1 X124.860 Y82.018 E7.54652
G1 X125.025 Y82.050 E7.55071
G1 X125.327 Y82.175 E7.55885
G1 X125.472 Y82.274 E7.56321
G1 X125.664 Y82.468 E7.57001
G1 X125.809 Y82.699 E7.57678
G1 X125.885 Y82.903 E7.58220
G1 X125.911 Y83.110 E7.58739
G1 X115.520 Y83.110 E7.84593
G1 X115.520 Y103.457 E8.35217
G1 X115.520 Y103.860 F9000.000
G1 X115.159 Y103.871 F9000.000
G1 X125.562 Y103.871 E8.61101 F2520.000
G1 X125.567 Y116.748 E8.93137
G1 X125.541 Y116.972 E8.93699
G1 X125.478 Y117.149 E8.94167
G1 X125.377 Y117.309 E8.94638
G1 X125.243 Y117.442 E8.95108
G1 X125.078 Y117.545 E8.95591
G1 X124.946 Y117.594 E8.95941
G1 X124.680 Y117.630 E8.96609
G1 X75.315 Y117.630 E10.19429
G1 X75.091 Y117.604 E10.19991
G1 X74.913 Y117.541 E10.20460
G1 X74.754 Y117.439 E10.20930
G1 X74.620 Y117.306 E10.21400
G1 X74.517 Y117.141 E10.21884
G1 X74.468 Y117.009 E10.22234
G1 X74.433 Y116.743 E10.22901
G1 X74.438 Y102.111 E10.59304
G1 X84.841 Y102.111 E10.85188
G1 X84.841 Y90.989 E11.12861
G1 X74.438 Y90.989 E11.38745
G1 X74.433 Y83.252 E11.57993
G1 X74.459 Y83.028 E11.58555
G1 X74.522 Y82.851 E11.59023
G1 X74.623 Y82.691 E11.59494
G1 X74.757 Y82.558 E11.59964
G1 X74.922 Y82.455 E11.60447
G1 X75.054 Y82.406 E11.60797
G1 X75.320 Y82.370 E11.61465
G1 X124.825 Y82.380 E12.84634
G1 X124.920 Y82.398 E12.84875
G1 X125.154 Y82.495 E12.85503
G1 X125.239 Y82.553 E12.85762
G1 X125.434 Y82.749 E12.86447
G1 X115.159 Y82.749 E13.12011
G1 X115.159 Y103.819 E13.64433
G1 X114.948 Y103.824 F9000.000
G1 X93.708 Y82.584 E14.39484 F2520.000
G1 X94.222 Y82.584 E14.40767
G1 X114.948 Y103.311 E15.14003
G1 X114.948 Y102.797 E15.15286
G1 X94.735 Y82.584 E15.86709
G1 X95.248 Y82.584 E15.87991
G1 X114.948 Y102.284 E16.57600
G1 X114.948 Y101.771 E16.58883
G1 X95.762 Y82.585 E17.26678
G1 X96.275 Y82.585 E17.27960
G1 X114.948 Y101.258 E17.93942
G1 X114.948 Y100.745 E17.95224
G1 X96.788 Y82.585 E18.59392
G1 X97.302 Y82.585 E18.60674
G1 X114.948 Y100.231 E19.23028
G1 X114.948 Y99.718 E19.24310
G1 X97.815 Y82.585 E19.84850
G1 X98.328 Y82.585 E19.86133
G1 X114.948 Y99.205 E20.44859
G1 X114.948 Y98.692 E20.46141
G1 X98.842 Y82.585 E21.03053
G1 X99.355 Y82.585 E21.04336
G1 X114.948 Y98.178 E21.59434
G1 X114.948 Y97.665 E21.60717
G1 X99.868 Y82.585 E22.14001
G1 X100.382 Y82.585 E22.15284
G1 X114.948 Y97.152 E22.66754
G1 X114.948 Y96.639 E22.68037
G1 X100.895 Y82.586 E23.17693
G1 X101.408 Y82.586 E23.18976
G1 X114.948 Y96.125 E23.66819
G1 X114.948 Y95.612 E23.68101
G1 X101.922 Y82.586 E24.14131
G1 X102.435 Y82.586 E24.15413
G1 X114.948 Y95.099 E24.59628
G1 X114.948 Y94.586 E24.60911
G1 X102.948 Y82.586 E25.03312
G1 X103.462 Y82.586 E25.04595
G1 X114.948 Y94.073 E25.45182
G1 X114.948 Y93.559 E25.46465
G1 X103.975 Y82.586 E25.85238
G1 X104.488 Y82.586 E25.86521
G1 X114.948 Y93.046 E26.23481
G1 X114.948 Y92.533 E26.24763
G1 X105.002 Y82.586 E26.59909
G1 X105.515 Y82.586 E26.61192
G1 X114.948 Y92.020 E26.94524
G1 X114.948 Y91.506 E26.95807
G1 X106.028 Y82.587 E27.27325
G1 X106.542 Y82.587 E27.28608
G1 X114.948 Y90.993 E27.58312
G1 X114.948 Y90.480 E27.59594
G1 X107.055 Y82.587 E27.87485
G1 X107.568 Y82.587 E27.88768
G1 X114.948 Y89.967 E28.14845
G1 X114.948 Y89.453 E28.16127
G1 X108.082 Y82.587 E28.40390
G1 X108.595 Y82.587 E28.41673
G1 X114.948 Y88.940 E28.64122
G1 X114.948 Y88.427 E28.65404
G1 X109.108 Y82.587 E28.86039
G1 X109.622 Y82.587 E28.87322
G1 X114.948 Y87.914 E29.06144
G1 X114.948 Y87.401 E29.07426
G1 X110.135 Y82.587 E29.24434
G1 X110.648 Y82.587 E29.25716
G1 X114.948 Y86.887 E29.40910
G1 X114.948 Y86.374 E29.42192
G1 X111.162 Y82.588 E29.55572
G1 X111.675 Y82.588 E29.56855
G1 X114.948 Y85.861 E29.68421
G1 X114.948 Y85.348 E29.69703
G1 X112.188 Y82.588 E29.79456
G1 X112.702 Y82.588 E29.80738
G1 X114.948 Y84.834 E29.88677
G1 X114.948 Y84.321 E29.89959
G1 X113.215 Y82.588 E29.96084
G1 X113.728 Y82.588 E29.97366
G1 X114.948 Y83.808 E30.01677
G1 X114.948 Y83.295 E30.02959
G1 X114.241 Y82.588 E30.05456
G1 X114.755 Y82.588 E30.06739
G1 X114.948 Y82.782 E30.07422
G1 E27.07422 F3900.00000
G92 E0
G1 X115.206 Y104.082 F9000.000
G1 E3.00000 F3900.00000
G1 X125.356 Y114.231 E3.35864 F2520.000
G1 X125.356 Y114.745 E3.37146
G1 X93.195 Y82.584 E4.50787
G1 X92.682 Y82.584 E4.52069
G1 X125.356 Y115.258 E5.67524
G1 X125.356 Y115.772 E5.68807
G1 X92.168 Y82.584 E6.86076
G1 X91.655 Y82.584 E6.87359
G1 X125.357 Y116.285 E8.06443
G1 X125.357 Y116.799 E8.07726
G1 X91.142 Y82.584 E9.28624
G1 X90.628 Y82.584 E9.29907
G1 X125.225 Y117.180 E10.52153
G1 X124.926 Y117.394 E10.53072
G1 X90.115 Y82.583 E11.76076
G1 X89.602 Y82.583 E11.77359
G1 X124.438 Y117.419 E13.00452
G1 X123.925 Y117.419 E13.01734
G1 X89.088 Y82.583 E14.24827
G1 X88.575 Y82.583 E14.26110
G1 X123.411 Y117.419 E15.49204
G1 X122.898 Y117.419 E15.50486
G1 X88.062 Y82.583 E16.73580
G1 X87.548 Y82.583 E16.74862
G1 X122.385 Y117.419 E17.97957
G1 X121.872 Y117.419 E17.99239
G1 X87.035 Y82.583 E19.22334
G1 X86.522 Y82.583 E19.23616
G1 X121.358 Y117.419 E20.46711
G1 X120.845 Y117.419 E20.47994
G1 X86.009 Y82.583 E21.71089
G1 X85.495 Y82.583 E21.72372
G1 X120.332 Y117.419 E22.95467
G1 X119.819 Y117.419 E22.96750
G1 X84.982 Y82.583 E24.19846
G1 X84.469 Y82.582 E24.21128
G1 X119.305 Y117.419 E25.44225
G1 X118.792 Y117.419 E25.45507
G1 X83.955 Y82.582 E26.68604
G1 X83.442 Y82.582 E26.69887
G1 X118.279 Y117.419 E27.92984
G1 X117.766 Y117.419 E27.94266
G1 X82.929 Y82.582 E29.17364
G1 X82.415 Y82.582 E29.18646
G1 X117.253 Y117.419 E30.41744
G1 X116.739 Y117.419 E30.43026
G1 X81.902 Y82.582 E31.66124
G1 X81.389 Y82.582 E31.67407
G1 X116.226 Y117.419 E32.90505
G1 X115.713 Y117.419 E32.91788
G1 X80.875 Y82.582 E34.14887
G1 X80.362 Y82.582 E34.16169
G1 X115.200 Y117.419 E35.39268
G1 X114.686 Y117.419 E35.40551
G1 X79.849 Y82.582 E36.63650
G1 X79.335 Y82.581 E36.64933
G1 X114.173 Y117.419 E37.88033
G1 X113.660 Y117.419 E37.89315
G1 X78.822 Y82.581 E39.12415
G1 X78.309 Y82.581 E39.13698
G1 X113.147 Y117.419 E40.36799
G1 X112.634 Y117.419 E40.38081
G1 X77.795 Y82.581 E41.61182
G1 X77.282 Y82.581 E41.62464
G1 X112.120 Y117.419 E42.85566
G1 X111.607 Y117.419 E42.86848
G1 X76.769 Y82.581 E44.09950
G1 X76.255 Y82.581 E44.11232
G1 X84.453 Y90.778 E44.40197
G1 X83.939 Y90.778 E44.41480
G1 X75.742 Y82.581 E44.70445
G1 X75.233 Y82.585 E44.71718
G1 X83.426 Y90.778 E45.00670
G1 X82.913 Y90.778 E45.01953
G1 X74.865 Y82.730 E45.30390
G1 X74.661 Y83.040 E45.31315
G1 X82.400 Y90.778 E45.58660
G1 X81.886 Y90.778 E45.59942
G1 X74.644 Y83.535 E45.85535
G1 X74.644 Y84.049 E45.86818
G1 X81.373 Y90.778 E46.10597
G1 X80.860 Y90.778 E46.11879
G1 X74.644 Y84.562 E46.33843
G1 X74.645 Y85.076 E46.35126
G1 X80.347 Y90.778 E46.55275
G1 X79.834 Y90.778 E46.56557
G1 X74.645 Y85.589 E46.74892
G1 X74.645 Y86.103 E46.76175
G1 X79.320 Y90.778 E46.92694
G1 X78.807 Y90.778 E46.93977
G1 X74.646 Y86.617 E47.08682
G1 X74.646 Y87.130 E47.09965
G1 X78.294 Y90.778 E47.22855
G1 X77.781 Y90.778 E47.24137
G1 X74.646 Y87.644 E47.35213
G1 X74.647 Y88.157 E47.36496
G1 X77.267 Y90.778 E47.45757
G1 X76.754 Y90.778 E47.47040
G1 X74.647 Y88.671 E47.54486
G1 X74.647 Y89.184 E47.55769
G1 X76.241 Y90.778 E47.61401
G1 X75.728 Y90.778 E47.62683
G1 X74.647 Y89.698 E47.66500
G1 X74.648 Y90.211 E47.67783
G1 X75.214 Y90.778 E47.69785
G1 E44.69785 F3900.00000
G92 E0
G1 X85.052 Y91.377 F9000.000
G1 E3.00000 F3900.00000
G1 X111.094 Y117.419 E3.92019 F2520.000
G1 X110.581 Y117.419 E3.93302
G1 X85.052 Y91.891 E4.83508
G1 X85.052 Y92.404 E4.84790
G1 X110.067 Y117.419 E5.73182
G1 X109.554 Y117.419 E5.74465
G1 X85.052 Y92.917 E6.61043
G1 X85.052 Y93.430 E6.62326
G1 X109.041 Y117.419 E7.47091
G1 X108.528 Y117.419 E7.48373
G1 X85.052 Y93.944 E8.31325
G1 X85.052 Y94.457 E8.32608
G1 X108.014 Y117.419 E9.13746
