%
(Header)
(Generated by gcodetools from Inkscape.)
(Using default header. To add your own header create file "header" in the output dir.)
M3
(Header end.)
G21 (All units in mm)

(Start cutting path id: path5337)
(Change tool to Cylindrical cutter)

G00 Z5.000000
G00 X0.000000 Y35.249913

G01 Z0.000000 F100.0(Penetrate)
G01 X0.000000 Y17.624805 Z0.000000 F100.000000
G01 X0.000000 Y0.000255 Z0.000000
G01 X21.462669 Y0.000255 Z0.000000
G01 X42.925340 Y0.000255 Z0.000000
G01 X42.925340 Y17.624805 Z0.000000
G01 X42.925340 Y35.249913 Z0.000000
G01 X21.462669 Y35.249913 Z0.000000
G01 X0.000000 Y35.249913 Z0.000000
G01 X0.000000 Y35.249913 Z0.000000
G00 Z5.000000

(End cutting path id: path5337)


(Start cutting path id: path5337)
(Change tool to Cylindrical cutter)

G00 Z5.000000
G00 X0.213320 Y35.037145

G01 Z0.000000 F100.0(Penetrate)
G01 X21.462669 Y35.037145 Z0.000000 F100.000000
G01 X42.712570 Y35.037145 Z0.000000
G01 X42.712570 Y17.624805 Z0.000000
G01 X42.712570 Y0.213023 Z0.000000
G01 X21.494089 Y0.177180 Z0.000000
G02 X0.336847 Y0.229738 Z0.000000 I-4.293112 J2530.289486
G02 X0.207808 Y0.319392 Z0.000000 I0.000927 J0.139023
G02 X0.173748 Y0.503715 Z0.000000 I0.486829 J0.185267
G02 X0.176389 Y17.767019 Z0.000000 I4391.479607 J7.959881
G01 X0.213320 Y35.037145 Z0.000000
G01 X0.213320 Y35.037145 Z0.000000
G00 Z5.000000

(End cutting path id: path5337)


(Footer)
M5
G00 X0.0000 Y0.0000
M2
(Using default footer. To add your own footer create file "footer" in the output dir.)
(end)
%