%
(Header)
(Generated by gcodetools from Inkscape.)
(Using default header. To add your own header create file "header" in the output dir.)
M3
(Header end.)
G21 (All units in mm)

(Start cutting path id: path3403)
(Change tool to Cylindrical cutter)

G00 Z5.000000
G00 X5.097639 Y32.976150

G01 Z0.000000 F100.0(Penetrate)
G03 X3.032078 Y32.831201 Z0.000000 I-0.000000 J-14.789862 F100.000000
G03 X2.623234 Y32.627230 Z0.000000 I0.100624 J-0.713427
G01 X2.274314 Y32.278313 Z0.000000
G01 X2.274314 Y17.152966 Z0.000000
G03 X2.417312 Y2.077981 Z0.000000 I794.683749 J-0.000000
G03 X2.568663 Y1.653880 Z0.000000 I0.707475 J0.013423
G01 X2.863563 Y1.279061 Z0.000000
G01 X18.132778 Y1.279061 Z0.000000
G03 X33.345653 Y1.416351 Z0.000000 I-0.000000 J842.926236
G03 X33.683112 Y1.559646 Z0.000000 I-0.008842 J0.489827
G03 X33.920985 Y1.864603 Z0.000000 I-1.115342 J1.115240
G03 X34.044710 Y2.163771 Z0.000000 I-0.945723 J0.566284
G03 X34.086367 Y2.491834 Z0.000000 I-1.357602 J0.339067
G03 X34.083845 Y7.138474 Z0.000000 I-276.374321 J2.173306
G03 X33.897945 Y11.729539 Z0.000000 I-72.898315 J-0.652484
G03 X33.725556 Y12.106601 Z0.000000 I-0.591929 J-0.042686
G03 X32.871134 Y12.438191 Z0.000000 I-0.803596 J-0.804053
G03 X32.033876 Y12.031078 Z0.000000 I0.052471 J-1.172410
G01 X31.696533 Y11.639721 Z0.000000
G01 X31.696533 Y7.596549 Z0.000000
G01 X31.696533 Y3.553377 Z0.000000
G01 X18.121754 Y3.553377 Z0.000000
G01 X4.546975 Y3.553377 Z0.000000
G01 X4.583355 Y17.092330 Z0.000000
G01 X4.619735 Y30.630731 Z0.000000
G01 X5.756341 Y30.666559 Z0.000000
G03 X7.333366 Y30.924190 Z0.000000 I-0.193243 J6.138384
G03 X7.744023 Y31.265178 Z0.000000 I-0.197283 J0.655366
G03 X7.861887 Y31.915906 Z0.000000 I-1.000120 J0.517185
G03 X7.591888 Y32.538485 Z0.000000 I-1.176967 J-0.140589
G01 X7.223676 Y32.976150 Z0.000000
G01 X5.097639 Y32.976150 Z0.000000
G01 X5.097639 Y32.976150 Z0.000000
G00 Z5.000000

(End cutting path id: path3403)


(Start cutting path id: path3403)
(Change tool to Cylindrical cutter)

G00 Z5.000000
G00 X8.799601 Y32.976150

G01 Z0.000000 F100.0(Penetrate)
G01 X8.450681 Y32.627230 Z0.000000 F100.000000
G03 X8.200934 Y32.237233 Z0.000000 I0.764631 J-0.764622
G03 X8.101762 Y31.682449 Z0.000000 I1.502196 J-0.554785
G02 X7.973230 Y31.137297 Z0.000000 I-1.220361 J0.000000
G02 X7.462352 Y30.402526 Z0.000000 I-2.780745 J1.388430
G03 X6.914795 Y29.273783 Z0.000000 I1.548330 J-1.448282
G03 X7.171311 Y28.492014 Z0.000000 I0.900925 J-0.137355
G03 X7.994188 Y28.273738 Z0.000000 I0.599378 J0.599375
G03 X9.405938 Y29.102760 Z0.000000 I-0.826670 J3.024299
G03 X10.290964 Y30.095266 Z0.000000 I-10.007197 J9.814359
G03 X10.442222 Y30.382132 Z0.000000 I-0.648551 J0.525276
G01 X10.537583 Y30.701837 Z0.000000
G01 X15.864527 Y30.701837 Z0.000000
G01 X21.191472 Y30.701837 Z0.000000
G01 X21.540391 Y31.050756 Z0.000000
G03 X21.803891 Y31.435023 Z0.000000 I-0.898814 J0.898814
G03 X21.889310 Y31.838992 Z0.000000 I-0.912527 J0.403969
G03 X21.803892 Y32.242960 Z0.000000 I-0.997955 J-0.000000
G03 X21.540391 Y32.627230 Z0.000000 I-1.162312 J-0.514540
G01 X21.191472 Y32.976150 Z0.000000
G01 X14.995260 Y32.976150 Z0.000000
G01 X8.799601 Y32.976150 Z0.000000
G01 X8.799601 Y32.976150 Z0.000000
G00 Z5.000000

(End cutting path id: path3403)


(Start cutting path id: path3403)
(Change tool to Cylindrical cutter)

G00 Z5.000000
G00 X29.135587 Y32.976150

G01 Z0.000000 F100.0(Penetrate)
G03 X22.882164 Y32.910656 Z0.000000 I0.000000 J-298.574597 F100.000000
G03 X22.610300 Y32.839450 Z0.000000 I0.012628 J-0.602806
G03 X22.400717 Y32.661072 Z0.000000 I0.306127 J-0.571993
G03 X22.175942 Y32.270594 Z0.000000 I1.385523 J-1.057496
G03 X22.134104 Y31.419082 Z0.000000 I1.169015 J-0.484222
G03 X22.610300 Y30.838537 Z0.000000 I0.939354 J0.284936
G03 X22.882165 Y30.767328 Z0.000000 I0.284493 J0.531582
G03 X29.135587 Y30.701837 Z0.000000 I6.253421 J298.519327
G01 X35.405108 Y30.701837 Z0.000000
G01 X35.754028 Y31.050756 Z0.000000
G03 X36.017529 Y31.435023 Z0.000000 I-0.898818 J0.898818
G03 X36.102948 Y31.838992 Z0.000000 I-0.912524 J0.403969
G03 X36.017530 Y32.242960 Z0.000000 I-0.997952 J-0.000000
G03 X35.754028 Y32.627230 Z0.000000 I-1.162315 J-0.514543
G01 X35.405108 Y32.976150 Z0.000000
G01 X29.135587 Y32.976150 Z0.000000
G01 X29.135587 Y32.976150 Z0.000000
G00 Z5.000000

(End cutting path id: path3403)


(Start cutting path id: path3403)
(Change tool to Cylindrical cutter)

G00 Z5.000000
G00 X38.235049 Y32.976150

G01 Z0.000000 F100.0(Penetrate)
G03 X37.052616 Y32.866070 Z0.000000 I0.000000 J-6.405638 F100.000000
G03 X36.699913 Y32.687865 Z0.000000 I0.130982 J-0.697380
G03 X36.335022 Y32.024067 Z0.000000 I0.825308 J-0.885862
G03 X36.441394 Y31.302660 Z0.000000 I1.103340 J-0.205858
G03 X36.858163 Y30.875566 Z0.000000 I0.908857 J0.469992
G03 X37.536106 Y30.701837 Z0.000000 I0.677943 J1.235902
G01 X37.950620 Y30.701837 Z0.000000
G01 X37.950620 Y26.153207 Z0.000000
G01 X37.950620 Y21.605131 Z0.000000
G01 X28.433889 Y21.605131 Z0.000000
G01 X18.916606 Y21.605131 Z0.000000
G01 X18.875265 Y25.652703 Z0.000000
G01 X18.833373 Y29.700828 Z0.000000
G01 X18.477839 Y30.051402 Z0.000000
G03 X18.064217 Y30.263633 Z0.000000 I-0.544183 J-0.551396
G03 X16.220061 Y30.437253 Z0.000000 I-2.070178 J-12.108049
G01 X14.317266 Y30.471981 Z0.000000
G01 X13.981024 Y30.081718 Z0.000000
G03 X13.721428 Y29.321005 Z0.000000 I0.818361 J-0.703920
G03 X14.060951 Y28.558712 Z0.000000 I1.163090 J0.061279
G03 X14.532623 Y28.279148 Z0.000000 I0.782451 J0.782451
G03 X15.481984 Y28.143094 Z0.000000 I0.949361 J3.244221
G01 X16.487951 Y28.143094 Z0.000000
G01 X16.487951 Y24.437274 Z0.000000
G01 X16.487951 Y20.730903 Z0.000000
G01 X17.189649 Y19.995581 Z0.000000
G01 X17.891346 Y19.259709 Z0.000000
G01 X28.525391 Y19.224982 Z0.000000
G03 X39.138535 Y19.276919 Z0.000000 I2.130437 J649.063674
G03 X39.514419 Y19.368850 Z0.000000 I-0.011245 J0.860390
G03 X39.816831 Y19.600652 Z0.000000 I-0.460255 J0.913623
G03 X40.117999 Y20.043537 Z0.000000 I-1.513410 J1.352983
G03 X40.253054 Y20.565900 Z0.000000 I-1.146644 J0.575101
G03 X40.367148 Y26.108560 Z0.000000 I-134.835910 J5.548048
G03 X40.304567 Y31.666712 Z0.000000 I-245.988856 J0.009767
G03 X40.233755 Y32.029162 Z0.000000 I-1.088732 J-0.024563
G03 X39.653754 Y32.657021 Z0.000000 I-1.070362 J-0.406950
G03 X38.235049 Y32.976150 Z0.000000 I-1.418704 J-2.993897
G01 X38.235049 Y32.976150 Z0.000000
G00 Z5.000000

(End cutting path id: path3403)


(Start cutting path id: path3403)
(Change tool to Cylindrical cutter)

G00 Z5.000000
G00 X28.974079 Y29.991320

G01 Z0.000000 F100.0(Penetrate)
G01 X28.558465 Y29.575702 Z0.000000 F100.000000
G03 X28.227529 Y29.125339 Z0.000000 I1.307673 J-1.307673
G03 X28.143399 Y28.783056 Z0.000000 I0.654218 J-0.342283
G03 X28.227528 Y28.440775 Z0.000000 I0.738347 J-0.000000
G03 X28.558465 Y27.990409 Z0.000000 I1.638606 J0.857303
G01 X28.974079 Y27.574792 Z0.000000
G01 X31.567549 Y27.574792 Z0.000000
G01 X34.161567 Y27.574792 Z0.000000
G01 X35.118478 Y26.650954 Z0.000000
G03 X36.126979 Y25.854415 Z0.000000 I4.501880 J4.663143
G03 X36.562109 Y25.727120 Z0.000000 I0.435130 J0.680050
G03 X37.009546 Y25.815388 Z0.000000 I-0.000000 J1.178172
G03 X37.340978 Y26.046824 Z0.000000 I-0.351693 J0.856683
G03 X37.722791 Y26.757865 Z0.000000 I-1.210778 J1.108194
G03 X37.658478 Y27.320682 Z0.000000 I-0.783958 J0.195500
G03 X36.633119 Y28.740234 Z0.000000 I-5.097374 J-2.601800
G03 X35.221554 Y29.788472 Z0.000000 I-4.106768 J-4.055672
G03 X34.815724 Y29.902322 Z0.000000 I-0.466942 J-0.884230
G03 X31.905993 Y29.991320 Z0.000000 I-2.909731 J-47.521591
G01 X28.974079 Y29.991320 Z0.000000
G01 X28.974079 Y29.991320 Z0.000000
G00 Z5.000000

(End cutting path id: path3403)


(Start cutting path id: path3403)
(Change tool to Cylindrical cutter)

G00 Z5.000000
G00 X21.946085 Y29.936199

G01 Z0.000000 F100.0(Penetrate)
G03 X21.052530 Y29.557733 Z0.000000 I-0.196062 J-0.781172 F100.000000
G03 X20.467726 Y27.375252 Z0.000000 I3.780094 J-2.182480
G03 X20.705553 Y25.708859 Z0.000000 I5.956906 J0.000000
G03 X21.225096 Y24.775170 Z0.000000 I2.306563 J0.672073
G02 X21.586582 Y24.182020 Z0.000000 I-1.406708 J-1.264022
G02 X21.775208 Y23.324923 Z0.000000 I-2.819884 J-1.069894
G03 X21.956405 Y22.473562 Z0.000000 I3.131355 J0.221489
G03 X22.227756 Y22.080828 Z0.000000 I0.886451 J0.322365
G03 X22.985896 Y21.822522 Z0.000000 I0.700567 J0.814457
G03 X23.748008 Y22.162410 Z0.000000 I-0.062496 J1.164495
G03 X24.015813 Y22.639177 Z0.000000 I-0.715494 J0.715499
G03 X24.163624 Y23.874483 Z0.000000 I-5.088021 J1.235306
G01 X24.163624 Y25.170391 Z0.000000
G01 X23.523663 Y25.854450 Z0.000000
G01 X22.884254 Y26.537955 Z0.000000
G01 X22.884254 Y27.882369 Z0.000000
G03 X22.546067 Y29.436831 Z0.000000 I-3.741607 J-0.000000
G03 X21.946085 Y29.936199 Z0.000000 I-0.819227 J-0.374170
G01 X21.946085 Y29.936199 Z0.000000
G00 Z5.000000

(End cutting path id: path3403)


(Start cutting path id: path3403)
(Change tool to Cylindrical cutter)

G00 Z5.000000
G00 X11.536385 Y28.004187

G01 Z0.000000 F100.0(Penetrate)
G03 X10.019353 Y27.967489 Z0.000000 I-0.283623 J-19.649295 F100.000000
G03 X9.387196 Y27.839925 Z0.000000 I0.148933 J-2.368211
G03 X8.640203 Y26.951840 Z0.000000 I0.373964 J-1.072752
G03 X9.061979 Y25.866024 Z0.000000 I1.129512 J-0.186077
G03 X9.457831 Y25.696261 Z0.000000 I0.515238 J0.655023
G03 X11.004462 Y25.584905 Z0.000000 I1.546631 J10.684982
G01 X12.589757 Y25.584905 Z0.000000
G01 X13.259484 Y24.904704 Z0.000000
G02 X13.768465 Y24.158777 Z0.000000 I-1.806325 J-1.779157
G02 X13.929761 Y23.401541 Z0.000000 I-1.696849 J-0.757236
G03 X14.055384 Y22.630152 Z0.000000 I2.431177 J0.000000
G03 X14.344826 Y22.162410 Z0.000000 I1.137902 J0.380717
G03 X15.107049 Y21.824390 Z0.000000 I0.819468 J0.819468
G03 X15.872244 Y22.086893 Z0.000000 I0.053881 J1.089457
G03 X16.138429 Y22.490124 Z0.000000 I-0.576141 J0.669803
G03 X16.322036 Y23.507924 Z0.000000 I-3.861547 J1.222066
G03 X16.334315 Y24.584640 Z0.000000 I-13.772576 J0.695493
G03 X16.281246 Y24.970298 Z0.000000 I-1.786978 J-0.049419
G03 X15.485835 Y26.403387 Z0.000000 I-3.082714 J-0.773723
G03 X13.571472 Y27.779293 Z0.000000 I-4.735157 J-4.568525
G03 X13.059212 Y27.920600 Z0.000000 I-0.658300 J-1.387270
G03 X11.536385 Y28.004187 Z0.000000 I-1.794909 J-18.786918
G01 X11.536385 Y28.004187 Z0.000000
G00 Z5.000000

(End cutting path id: path3403)


(Start cutting path id: path3403)
(Change tool to Cylindrical cutter)

G00 Z5.000000
G00 X25.046671 Y27.391788

G01 Z0.000000 F100.0(Penetrate)
G03 X24.788709 Y27.294017 Z0.000000 I0.267720 J-1.095563 F100.000000
G03 X24.525222 Y27.112873 Z0.000000 I0.636278 J-1.207713
G03 X24.313041 Y26.694530 Z0.000000 I0.414957 J-0.473442
G03 X24.274419 Y24.257027 Z0.000000 I16.928238 J-1.487289
G03 X24.524153 Y22.505008 Z0.000000 I10.328821 J0.578471
G03 X24.775473 Y22.089648 Z0.000000 I0.758906 J0.175474
G03 X25.228516 Y21.893518 Z0.000000 I0.542208 J0.631145
G03 X27.948820 Y21.747343 Z0.000000 I2.720303 J25.239189
G01 X30.723637 Y21.747343 Z0.000000
G01 X31.139254 Y22.162410 Z0.000000
G03 X31.470190 Y22.612776 Z0.000000 I-1.307652 J1.307652
G03 X31.554319 Y22.955057 Z0.000000 I-0.654223 J0.342280
G03 X31.470189 Y23.297338 Z0.000000 I-0.738348 J0.000000
G03 X31.139254 Y23.747703 Z0.000000 I-1.638634 J-0.857319
G01 X30.723637 Y24.163321 Z0.000000
G01 X28.722727 Y24.163321 Z0.000000
G01 X26.721814 Y24.163321 Z0.000000
G01 X26.721814 Y25.165430 Z0.000000
G03 X26.648370 Y26.149570 Z0.000000 I-6.630356 J-0.000000
G03 X26.509597 Y26.578195 Z0.000000 I-1.363355 J-0.204629
G03 X25.798812 Y27.297482 Z0.000000 I-1.509012 J-0.780340
G03 X25.046671 Y27.391788 Z0.000000 I-0.499687 J-0.938761
G01 X25.046671 Y27.391788 Z0.000000
G00 Z5.000000

(End cutting path id: path3403)


(Start cutting path id: path3403)
(Change tool to Cylindrical cutter)

G00 Z5.000000
G00 X34.025417 Y25.499465

G01 Z0.000000 F100.0(Penetrate)
G03 X33.556233 Y25.394505 Z0.000000 I0.000000 J-1.101134 F100.000000
G03 X33.204658 Y25.112513 Z0.000000 I0.410930 J-0.872488
G02 X32.899198 Y24.729634 Z0.000000 I-13.396026 J10.374043
G02 X32.300664 Y24.012840 Z0.000000 I-45.789608 J37.626732
G03 X31.839233 Y22.929165 Z0.000000 I1.514373 J-1.284899
G03 X32.112148 Y22.162410 Z0.000000 I0.943572 J-0.096098
G03 X32.918325 Y21.944268 Z0.000000 I0.593083 J0.593080
G03 X34.298820 Y22.736775 Z0.000000 I-0.774170 J2.947172
G03 X35.104750 Y23.789196 Z0.000000 I-3.564256 J3.564256
G03 X35.209427 Y24.321520 Z0.000000 I-0.731118 J0.420222
G03 X34.779174 Y25.188420 Z0.000000 I-1.491561 J-0.200060
G03 X34.025417 Y25.499465 Z0.000000 I-0.753757 J-0.757770
G01 X34.025417 Y25.499465 Z0.000000
G00 Z5.000000

(End cutting path id: path3403)


(Start cutting path id: path3403)
(Change tool to Cylindrical cutter)

G00 Z5.000000
G00 X6.487253 Y24.099931

G01 Z0.000000 F100.0(Penetrate)
G03 X5.311500 Y23.759098 Z0.000000 I-0.295721 J-1.178250 F100.000000
G03 X5.082756 Y22.623776 Z0.000000 I0.787504 J-0.749370
G03 X7.106358 Y19.388893 Z0.000000 I9.156241 J3.477366
G03 X9.440113 Y17.993017 Z0.000000 I3.624408 J3.410789
G03 X9.740891 Y17.948106 Z0.000000 I0.346349 J1.289924
G03 X11.832938 Y17.911438 Z0.000000 I2.150355 J62.987760
G01 X13.929761 Y17.909180 Z0.000000
G01 X13.929761 Y14.504875 Z0.000000
G03 X14.220518 Y10.738480 Z0.000000 I24.539895 J-0.000000
G03 X14.591220 Y10.249500 Z0.000000 I0.638708 J0.099205
G03 X15.258608 Y10.153943 Z0.000000 I0.496592 J1.089938
G03 X15.876102 Y10.434694 Z0.000000 I-0.172823 J1.199558
G01 X16.274631 Y10.777566 Z0.000000
G01 X16.274631 Y15.208776 Z0.000000
G01 X16.274631 Y19.639445 Z0.000000
G01 X15.876102 Y19.982853 Z0.000000
G03 X15.423443 Y20.180809 Z0.000000 I-0.548454 J-0.637612
G03 X12.887413 Y20.325708 Z0.000000 I-2.536030 J-22.120474
G01 X10.297804 Y20.325708 Z0.000000
G01 X8.549900 Y22.173383 Z0.000000
G03 X6.761284 Y23.950669 Z0.000000 I-29.640746 J-28.041050
G03 X6.487253 Y24.099880 Z0.000000 I-0.425931 J-0.455999
G01 X6.487253 Y24.099931 Z0.000000
G00 Z5.000000

(End cutting path id: path3403)


(Start cutting path id: path3403)
(Change tool to Cylindrical cutter)

G00 Z5.000000
G00 X12.662518 Y23.090103

G01 Z0.000000 F100.0(Penetrate)
G03 X12.543002 Y23.109310 Z0.000000 I-0.082843 J-0.134044 F100.000000
G03 X12.444787 Y23.038290 Z0.000000 I0.036988 J-0.154572
G03 X12.425328 Y22.918783 Z0.000000 I0.134736 J-0.083277
G03 X12.496050 Y22.820561 Z0.000000 I0.153737 J0.036123
G03 X12.615553 Y22.801100 Z0.000000 I0.083279 J0.134748
G03 X12.713780 Y22.871824 Z0.000000 I-0.036111 J0.153730
G03 X12.733348 Y22.991630 Z0.000000 I-0.135253 J0.083591
G03 X12.662518 Y23.090103 Z0.000000 I-0.153925 J-0.036006
G01 X12.662518 Y23.090103 Z0.000000
G00 Z5.000000

(End cutting path id: path3403)


(Start cutting path id: path3403)
(Change tool to Cylindrical cutter)

G00 Z5.000000
G00 X20.183299 Y23.026163

G01 Z0.000000 F100.0(Penetrate)
G03 X20.066308 Y23.001636 Z0.000000 I-0.000000 J-0.291284 F100.000000
G01 X20.041636 Y22.963876 Z0.000000
G03 X20.061900 Y22.912425 Z0.000000 I0.075450 J-0.000000
G03 X20.183299 Y22.812842 Z0.000000 I0.431702 J0.402485
G03 X20.280257 Y22.806183 Z0.000000 I0.054798 J0.088667
G03 X20.325512 Y22.875682 Z0.000000 I-0.030737 J0.069499
G03 X20.282659 Y22.983371 Z0.000000 I-0.156735 J0.000000
G03 X20.183299 Y23.026163 Z0.000000 I-0.099360 J-0.093957
G01 X20.183299 Y23.026163 Z0.000000
G00 Z5.000000

(End cutting path id: path3403)


(Start cutting path id: path3403)
(Change tool to Cylindrical cutter)

G00 Z5.000000
G00 X17.185790 Y18.761963

G01 Z0.000000 F100.0(Penetrate)
G01 X16.836871 Y18.413043 Z0.000000 F100.000000
G01 X16.487951 Y18.064673 Z0.000000
G01 X16.487951 Y14.071658 Z0.000000
G01 X16.487951 Y10.078665 Z0.000000
G01 X16.836871 Y9.729754 Z0.000000
G03 X17.240043 Y9.512077 Z0.000000 I0.565878 J0.565888
G03 X18.517526 Y9.380842 Z0.000000 I1.277483 J6.152129
G03 X19.795052 Y9.507635 Z0.000000 I0.000000 J6.499384
G03 X20.159045 Y9.709913 Z0.000000 I-0.134421 J0.670522
G03 X20.389274 Y10.964231 Z0.000000 I-0.857642 J0.805708
G03 X19.357027 Y11.655130 Z0.000000 I-1.032247 J-0.425673
G01 X18.904479 Y11.655130 Z0.000000
G01 X18.904479 Y14.071658 Z0.000000
G01 X18.904479 Y16.488200 Z0.000000
G01 X20.325512 Y16.488200 Z0.000000
G01 X21.747097 Y16.488200 Z0.000000
G01 X21.747097 Y15.928714 Z0.000000
G03 X21.923076 Y14.903965 Z0.000000 I3.071617 J0.000000
G03 X22.285634 Y14.407361 Z0.000000 I1.011876 J0.358097
G03 X23.040528 Y14.195083 Z0.000000 I0.646610 J0.851048
G03 X23.814705 Y14.562809 Z0.000000 I-0.129471 J1.271380
G03 X24.027008 Y14.968277 Z0.000000 I-0.542186 J0.542205
G03 X24.163624 Y16.488200 Z0.000000 I-8.386658 J1.519923
G03 X24.026974 Y18.007682 Z0.000000 I-8.516255 J0.000000
G03 X23.814705 Y18.413043 Z0.000000 I-0.754426 J-0.136801
G01 X23.465786 Y18.761963 Z0.000000
G01 X20.325512 Y18.761963 Z0.000000
G01 X17.185790 Y18.761963 Z0.000000
G01 X17.185790 Y18.761963 Z0.000000
G00 Z5.000000

(End cutting path id: path3403)


(Start cutting path id: path3403)
(Change tool to Cylindrical cutter)

G00 Z5.000000
G00 X33.989036 Y17.483143

G01 Z0.000000 F100.0(Penetrate)
G03 X30.022170 Y17.441070 Z0.000000 I-0.000000 J-187.027086 F100.000000
G03 X29.784368 Y17.394396 Z0.000000 I0.014965 J-0.705379
G03 X29.273054 Y16.914905 Z0.000000 I0.332800 J-0.867258
G03 X29.199527 Y16.121091 Z0.000000 I1.091505 J-0.501413
G03 X29.331295 Y15.813171 Z0.000000 I1.029481 J0.258392
G03 X29.593094 Y15.497114 Z0.000000 I1.349199 J0.851126
G03 X29.954366 Y15.340799 Z0.000000 I0.400416 J0.429793
G03 X33.910764 Y15.208827 Z0.000000 I3.956398 J59.238695
G03 X37.878352 Y15.323022 Z0.000000 I0.000000 J68.982246
G03 X38.223472 Y15.457425 Z0.000000 I-0.034503 J0.598898
G03 X38.456048 Y15.747411 Z0.000000 I-0.565246 J0.691600
G03 X38.611528 Y16.228575 Z0.000000 I-1.474030 J0.742010
G03 X38.575447 Y16.712475 Z0.000000 I-1.036920 J0.165980
G03 X38.329306 Y17.117135 Z0.000000 I-0.953808 J-0.302980
G01 X37.963851 Y17.483143 Z0.000000
G01 X33.989036 Y17.483143 Z0.000000
G01 X33.989036 Y17.483143 Z0.000000
G00 Z5.000000

(End cutting path id: path3403)


(Start cutting path id: path3403)
(Change tool to Cylindrical cutter)

G00 Z5.000000
G00 X5.734844 Y16.488200

G01 Z0.000000 F100.0(Penetrate)
G01 X5.402461 Y16.133768 Z0.000000 F100.000000
G03 X5.150432 Y15.747672 Z0.000000 I0.960300 J-0.902152
G03 X5.069527 Y15.351042 Z0.000000 I0.931771 J-0.396631
G03 X5.150388 Y14.954124 Z0.000000 I1.014594 J0.000000
G03 X5.402461 Y14.567776 Z0.000000 I1.211303 J0.514910
G01 X5.734844 Y14.213898 Z0.000000
G01 X8.553208 Y14.213898 Z0.000000
G01 X11.371020 Y14.213898 Z0.000000
G01 X11.371020 Y11.008559 Z0.000000
G03 X11.657232 Y7.355435 Z0.000000 I23.456773 J-0.000000
G03 X12.017044 Y6.910833 Z0.000000 I0.564581 J0.089013
G03 X12.294793 Y6.858339 Z0.000000 I0.283501 J0.738976
G03 X19.073523 Y6.835286 Z0.000000 I6.370203 J876.496349
G03 X25.854506 Y6.864682 Z0.000000 I-0.408453 J876.358417
G03 X26.120990 Y6.917324 Z0.000000 I-0.005999 J0.731173
G01 X26.120990 Y6.917324 Z0.000000
G03 X26.268774 Y7.026074 Z0.000000 I-0.137286 J0.341355
G03 X26.511801 Y7.396340 Z0.000000 I-1.659705 J1.354250
G03 X26.627201 Y7.825908 Z0.000000 I-0.926834 J0.479271
G03 X26.721814 Y11.796128 Z0.000000 I-83.253006 J3.970220
G01 X26.721814 Y15.789683 Z0.000000
G01 X26.372895 Y16.138603 Z0.000000
G03 X25.597682 Y16.510707 Z0.000000 I-0.917136 J-0.917129
G03 X24.862014 Y16.305069 Z0.000000 I-0.112051 J-1.017878
G03 X24.543864 Y15.760612 Z0.000000 I0.508531 J-0.662339
G03 X24.305287 Y12.397516 Z0.000000 I23.584546 J-3.363096
G01 X24.305287 Y9.283701 Z0.000000
G01 X20.574662 Y9.190540 Z0.000000
G02 X16.843338 Y9.110174 Z0.000000 I-13.200489 J526.229827
G02 X15.315517 Y9.096278 Z0.000000 I-1.545129 J85.880532
G01 X13.787548 Y9.096278 Z0.000000
G01 X13.787548 Y12.301052 Z0.000000
G03 X13.501335 Y15.954176 Z0.000000 I-23.456721 J0.000000
G03 X13.141523 Y16.398775 Z0.000000 I-0.564577 J-0.089013
G03 X12.903761 Y16.445707 Z0.000000 I-0.254342 J-0.662793
G03 X9.323255 Y16.487522 Z0.000000 I-3.580506 J-153.270896
G01 X5.734844 Y16.487522 Z0.000000
G01 X5.734844 Y16.488200 Z0.000000
G00 Z5.000000

(End cutting path id: path3403)


(Start cutting path id: path3403)
(Change tool to Cylindrical cutter)

G00 Z5.000000
G00 X20.183299 Y15.493256

G01 Z0.000000 F100.0(Penetrate)
G03 X20.083071 Y15.451546 Z0.000000 I0.000000 J-0.141275 F100.000000
G03 X20.041636 Y15.351042 Z0.000000 I0.101174 J-0.100504
G03 X20.083071 Y15.250538 Z0.000000 I0.142608 J0.000000
G03 X20.183299 Y15.208827 Z0.000000 I0.100228 J0.099564
G03 X20.283859 Y15.250481 Z0.000000 I-0.000000 J0.142213
G03 X20.325512 Y15.351042 Z0.000000 I-0.100562 J0.100561
G03 X20.283859 Y15.451603 Z0.000000 I-0.142215 J0.000000
G03 X20.183299 Y15.493256 Z0.000000 I-0.100560 J-0.100559
G01 X20.183299 Y15.493256 Z0.000000
G00 Z5.000000

(End cutting path id: path3403)


(Start cutting path id: path3403)
(Change tool to Cylindrical cutter)

G00 Z5.000000
G00 X28.948724 Y15.066615

G01 Z0.000000 F100.0(Penetrate)
G01 X28.048590 Y14.166485 Z0.000000 F100.000000
G01 X27.148455 Y13.266337 Z0.000000
G01 X27.148455 Y9.831184 Z0.000000
G01 X27.148455 Y6.396004 Z0.000000
G01 X17.909536 Y6.396004 Z0.000000
G01 X8.670616 Y6.396004 Z0.000000
G01 X8.670616 Y9.006559 Z0.000000
G03 X8.548747 Y11.574750 Z0.000000 I-27.120996 J0.000000
G03 X8.388394 Y11.975396 Z0.000000 I-0.761723 J-0.072456
G03 X7.376770 Y12.410094 Z0.000000 I-0.905144 J-0.711971
G03 X6.466858 Y11.796806 Z0.000000 I0.105722 J-1.138501
G03 X6.341948 Y11.333080 Z0.000000 I1.003804 J-0.519073
G03 X6.282201 Y8.027587 Z0.000000 I53.399654 J-2.618487
G03 X6.466933 Y4.758028 Z0.000000 I37.571987 J0.482847
G03 X6.648759 Y4.374700 Z0.000000 I0.627828 J0.063012
G01 X6.972322 Y4.051132 Z0.000000
G01 X17.735352 Y4.022910 Z0.000000
G03 X28.486682 Y4.056826 Z0.000000 I2.414649 J938.652777
G03 X28.809267 Y4.121575 Z0.000000 I-0.007769 J0.874653
G03 X29.189573 Y4.598688 Z0.000000 I-0.235331 J0.577709
G03 X29.564432 Y8.741298 Z0.000000 I-28.640823 J4.679929
G01 X29.635538 Y12.578872 Z0.000000
G01 X33.805481 Y12.649963 Z0.000000
G01 X37.975978 Y12.721083 Z0.000000
G01 X38.318833 Y13.120174 Z0.000000
G03 X38.583191 Y13.888802 Z0.000000 I-0.833320 J0.716384
G03 X38.246073 Y14.650891 Z0.000000 I-1.154125 J-0.054931
G01 X37.830455 Y15.066502 Z0.000000
G01 X33.389867 Y15.066502 Z0.000000
G01 X28.948724 Y15.066502 Z0.000000
G01 X28.948724 Y15.066615 Z0.000000
G00 Z5.000000

(End cutting path id: path3403)


(Footer)
M5
G00 X0.0000 Y0.0000
M2
(Using default footer. To add your own footer create file "footer" in the output dir.)
(end)
%