%
(Header)
(Generated by gcodetools from Inkscape.)
(Using default header. To add your own header create file "header" in the output dir.)
M3
(Header end.)
G21 (All units in mm)

(Start cutting path id: path3665)
(Change tool to Cylindrical cutter)

G00 Z5.000000
G00 X6.751285 Y31.981206

G01 Z0.000000 F100.0(Penetrate)
G03 X6.587938 Y31.931566 Z0.000000 I0.000000 J-0.293575 F100.000000
G03 X6.538516 Y31.838992 Z0.000000 I0.061991 J-0.092574
G03 X6.587937 Y31.746421 Z0.000000 I0.111409 J0.000000
G03 X6.751285 Y31.696780 Z0.000000 I0.163348 J0.243939
G03 X6.915028 Y31.746357 Z0.000000 I-0.000000 J0.295195
G03 X6.964605 Y31.838992 Z0.000000 I-0.061756 J0.092635
G03 X6.915026 Y31.931630 Z0.000000 I-0.111337 J0.000000
G03 X6.751285 Y31.981206 Z0.000000 I-0.163742 J-0.245615
G01 X6.751285 Y31.981206 Z0.000000
G00 Z5.000000

(End cutting path id: path3665)


(Start cutting path id: path3665)
(Change tool to Cylindrical cutter)

G00 Z5.000000
G00 X9.238919 Y31.981206

G01 Z0.000000 F100.0(Penetrate)
G03 X9.138360 Y31.939554 Z0.000000 I0.000000 J-0.142213 F100.000000
G03 X9.096706 Y31.838992 Z0.000000 I0.100561 J-0.100562
G03 X9.138359 Y31.738433 Z0.000000 I0.142211 J-0.000000
G03 X9.238919 Y31.696780 Z0.000000 I0.100560 J0.100562
G03 X9.339479 Y31.738433 Z0.000000 I0.000000 J0.142215
G03 X9.381133 Y31.838992 Z0.000000 I-0.100557 J0.100559
G03 X9.339478 Y31.939554 Z0.000000 I-0.142215 J0.000000
G03 X9.238919 Y31.981206 Z0.000000 I-0.100559 J-0.100560
G01 X9.238919 Y31.981206 Z0.000000
G00 Z5.000000

(End cutting path id: path3665)


(Start cutting path id: path3665)
(Change tool to Cylindrical cutter)

G00 Z5.000000
G00 X14.853598 Y31.981206

G01 Z0.000000 F100.0(Penetrate)
G03 X14.689857 Y31.931630 Z0.000000 I-0.000000 J-0.295191 F100.000000
G03 X14.640278 Y31.838992 Z0.000000 I0.061758 J-0.092638
G03 X14.689855 Y31.746357 Z0.000000 I0.111333 J0.000000
G03 X14.853598 Y31.696780 Z0.000000 I0.163743 J0.245619
G03 X15.016946 Y31.746420 Z0.000000 I0.000000 J0.293580
G03 X15.066367 Y31.838992 Z0.000000 I-0.061988 J0.092571
G03 X15.016945 Y31.931566 Z0.000000 I-0.111413 J0.000000
G03 X14.853598 Y31.981206 Z0.000000 I-0.163347 J-0.243936
G01 X14.853598 Y31.981206 Z0.000000
G00 Z5.000000

(End cutting path id: path3665)


(Start cutting path id: path3665)
(Change tool to Cylindrical cutter)

G00 Z5.000000
G00 X20.752153 Y31.981206

G01 Z0.000000 F100.0(Penetrate)
G03 X20.651594 Y31.939554 Z0.000000 I0.000000 J-0.142213 F100.000000
G03 X20.609939 Y31.838992 Z0.000000 I0.100561 J-0.100562
G03 X20.651593 Y31.738433 Z0.000000 I0.142211 J0.000000
G03 X20.752153 Y31.696780 Z0.000000 I0.100560 J0.100562
G03 X20.852713 Y31.738433 Z0.000000 I0.000000 J0.142215
G03 X20.894366 Y31.838992 Z0.000000 I-0.100557 J0.100559
G03 X20.852712 Y31.939554 Z0.000000 I-0.142215 J0.000000
G03 X20.752153 Y31.981206 Z0.000000 I-0.100559 J-0.100560
G01 X20.752153 Y31.981206 Z0.000000
G00 Z5.000000

(End cutting path id: path3665)


(Start cutting path id: path3665)
(Change tool to Cylindrical cutter)

G00 Z5.000000
G00 X23.239236 Y31.981206

G01 Z0.000000 F100.0(Penetrate)
G03 X23.075889 Y31.931566 Z0.000000 I0.000000 J-0.293575 F100.000000
G03 X23.026467 Y31.838992 Z0.000000 I0.061991 J-0.092574
G03 X23.075888 Y31.746420 Z0.000000 I0.111409 J-0.000000
G03 X23.239236 Y31.696780 Z0.000000 I0.163348 J0.243939
G03 X23.402979 Y31.746357 Z0.000000 I-0.000000 J0.295196
G03 X23.452556 Y31.838992 Z0.000000 I-0.061756 J0.092635
G03 X23.402978 Y31.931630 Z0.000000 I-0.111337 J0.000000
G03 X23.239236 Y31.981206 Z0.000000 I-0.163741 J-0.245615
G01 X23.239236 Y31.981206 Z0.000000
G00 Z5.000000

(End cutting path id: path3665)


(Start cutting path id: path3665)
(Change tool to Cylindrical cutter)

G00 Z5.000000
G00 X34.965790 Y31.981206

G01 Z0.000000 F100.0(Penetrate)
G03 X34.865230 Y31.939554 Z0.000000 I0.000000 J-0.142215 F100.000000
G03 X34.823575 Y31.838992 Z0.000000 I0.100560 J-0.100562
G03 X34.865229 Y31.738433 Z0.000000 I0.142210 J0.000000
G03 X34.965790 Y31.696780 Z0.000000 I0.100561 J0.100564
G03 X35.066350 Y31.738433 Z0.000000 I0.000000 J0.142217
G03 X35.108004 Y31.838992 Z0.000000 I-0.100556 J0.100559
G03 X35.066349 Y31.939554 Z0.000000 I-0.142215 J0.000000
G03 X34.965790 Y31.981206 Z0.000000 I-0.100560 J-0.100562
G01 X34.965790 Y31.981206 Z0.000000
G00 Z5.000000

(End cutting path id: path3665)


(Start cutting path id: path3665)
(Change tool to Cylindrical cutter)

G00 Z5.000000
G00 X37.453423 Y31.981206

G01 Z0.000000 F100.0(Penetrate)
G03 X37.289682 Y31.931630 Z0.000000 I-0.000000 J-0.295192 F100.000000
G03 X37.240103 Y31.838992 Z0.000000 I0.061758 J-0.092638
G03 X37.289681 Y31.746356 Z0.000000 I0.111333 J0.000000
G03 X37.453423 Y31.696780 Z0.000000 I0.163743 J0.245620
G03 X37.617166 Y31.746356 Z0.000000 I0.000000 J0.295196
G03 X37.666744 Y31.838992 Z0.000000 I-0.061755 J0.092635
G03 X37.617165 Y31.931630 Z0.000000 I-0.111337 J0.000000
G03 X37.453423 Y31.981206 Z0.000000 I-0.163742 J-0.245616
G01 X37.453423 Y31.981206 Z0.000000
G00 Z5.000000

(End cutting path id: path3665)


(Start cutting path id: path3665)
(Change tool to Cylindrical cutter)

G00 Z5.000000
G00 X14.936832 Y29.485854

G01 Z0.000000 F100.0(Penetrate)
G03 X14.817027 Y29.505423 Z0.000000 I-0.083593 J-0.135256 F100.000000
G03 X14.718551 Y29.434591 Z0.000000 I0.036000 J-0.153922
G03 X14.699346 Y29.315076 Z0.000000 I0.134034 J-0.082838
G03 X14.770365 Y29.216862 Z0.000000 I0.154587 J0.036999
G03 X14.889867 Y29.197403 Z0.000000 I0.083280 J0.134757
G03 X14.988095 Y29.268125 Z0.000000 I-0.036108 J0.153726
G03 X15.007549 Y29.387634 Z0.000000 I-0.134734 J0.083271
G03 X14.936832 Y29.485854 Z0.000000 I-0.153757 J-0.036136
G01 X14.936832 Y29.485854 Z0.000000
G00 Z5.000000

(End cutting path id: path3665)


(Start cutting path id: path3665)
(Change tool to Cylindrical cutter)

G00 Z5.000000
G00 X7.959549 Y29.422464

G01 Z0.000000 F100.0(Penetrate)
G03 X7.858990 Y29.380813 Z0.000000 I0.000000 J-0.142215 F100.000000
G03 X7.817335 Y29.280252 Z0.000000 I0.100556 J-0.100560
G03 X7.858988 Y29.179692 Z0.000000 I0.142215 J-0.000000
G03 X7.959549 Y29.138038 Z0.000000 I0.100560 J0.100559
G03 X8.060109 Y29.179691 Z0.000000 I0.000000 J0.142213
G03 X8.101762 Y29.280252 Z0.000000 I-0.100562 J0.100561
G03 X8.060107 Y29.380813 Z0.000000 I-0.142211 J0.000000
G03 X7.959549 Y29.422464 Z0.000000 I-0.100559 J-0.100563
G01 X7.959549 Y29.422464 Z0.000000
G00 Z5.000000

(End cutting path id: path3665)


(Start cutting path id: path3665)
(Change tool to Cylindrical cutter)

G00 Z5.000000
G00 X21.832535 Y28.958341

G01 Z0.000000 F100.0(Penetrate)
G03 X21.675782 Y28.946754 Z0.000000 I-0.073380 J-0.073380 F100.000000
G03 X21.635200 Y28.692104 Z0.000000 I0.224405 J-0.166321
G03 X21.709595 Y28.638668 Z0.000000 I0.074139 J0.024712
G03 X21.806077 Y28.692668 Z0.000000 I-0.000373 J0.113858
G03 X21.865159 Y28.866842 Z0.000000 I-0.348301 J0.215257
G03 X21.832535 Y28.958352 Z0.000000 I-0.112759 J0.011372
G01 X21.832535 Y28.958341 Z0.000000
G00 Z5.000000

(End cutting path id: path3665)


(Start cutting path id: path3665)
(Change tool to Cylindrical cutter)

G00 Z5.000000
G00 X29.434897 Y28.917552

G01 Z0.000000 F100.0(Penetrate)
G03 X29.315091 Y28.937121 Z0.000000 I-0.083595 J-0.135259 F100.000000
G03 X29.216615 Y28.866289 Z0.000000 I0.035998 J-0.153918
G03 X29.197300 Y28.746474 Z0.000000 I0.134546 J-0.083154
G03 X29.268429 Y28.648007 Z0.000000 I0.154773 J0.036878
G03 X29.387942 Y28.628800 Z0.000000 I0.082841 J0.134040
G03 X29.486160 Y28.699823 Z0.000000 I-0.036991 J0.154581
G03 X29.505621 Y28.819325 Z0.000000 I-0.134747 J0.083278
G03 X29.434897 Y28.917552 Z0.000000 I-0.153730 J-0.036112
G01 X29.434897 Y28.917552 Z0.000000
G00 Z5.000000

(End cutting path id: path3665)


(Start cutting path id: path3665)
(Change tool to Cylindrical cutter)

G00 Z5.000000
G00 X36.608964 Y27.005936

G01 Z0.000000 F100.0(Penetrate)
G03 X36.437643 Y26.955955 Z0.000000 I-0.000000 J-0.318611 F100.000000
G03 X36.387374 Y26.864275 Z0.000000 I0.058470 J-0.091680
G03 X36.427577 Y26.762484 Z0.000000 I0.148965 J-0.000000
G03 X36.520769 Y26.722063 Z0.000000 I0.093192 J0.087219
G03 X36.635726 Y26.755793 Z0.000000 I0.000000 J0.212761
G03 X36.742356 Y26.864275 Z0.000000 I-0.185648 J0.289125
G03 X36.733450 Y26.952179 Z0.000000 I-0.061726 J0.038150
G03 X36.608964 Y27.005936 Z0.000000 I-0.124487 J-0.117261
G01 X36.608964 Y27.005936 Z0.000000
G00 Z5.000000

(End cutting path id: path3665)


(Start cutting path id: path3665)
(Change tool to Cylindrical cutter)

G00 Z5.000000
G00 X9.807773 Y26.864275

G01 Z0.000000 F100.0(Penetrate)
G03 X9.707214 Y26.822622 Z0.000000 I-0.000000 J-0.142215 F100.000000
G03 X9.665560 Y26.722063 Z0.000000 I0.100557 J-0.100559
G03 X9.707213 Y26.621502 Z0.000000 I0.142215 J-0.000000
G03 X9.807773 Y26.579848 Z0.000000 I0.100560 J0.100559
G03 X9.908001 Y26.621559 Z0.000000 I-0.000000 J0.141275
G03 X9.949436 Y26.722063 Z0.000000 I-0.101174 J0.100504
G03 X9.908001 Y26.822565 Z0.000000 I-0.142603 J0.000000
G03 X9.807773 Y26.864275 Z0.000000 I-0.100227 J-0.099567
G01 X9.807773 Y26.864275 Z0.000000
G00 Z5.000000

(End cutting path id: path3665)


(Start cutting path id: path3665)
(Change tool to Cylindrical cutter)

G00 Z5.000000
G00 X17.625109 Y26.437634

G01 Z0.000000 F100.0(Penetrate)
G03 X17.524549 Y26.395981 Z0.000000 I-0.000000 J-0.142215 F100.000000
G03 X17.482895 Y26.295422 Z0.000000 I0.100557 J-0.100559
G03 X17.524548 Y26.194861 Z0.000000 I0.142215 J0.000000
G03 X17.625109 Y26.153207 Z0.000000 I0.100560 J0.100559
G03 X17.725669 Y26.194861 Z0.000000 I0.000000 J0.142213
G03 X17.767322 Y26.295422 Z0.000000 I-0.100562 J0.100561
G03 X17.725669 Y26.395981 Z0.000000 I-0.142211 J0.000000
G03 X17.625109 Y26.437634 Z0.000000 I-0.100560 J-0.100562
G01 X17.625109 Y26.437634 Z0.000000
G00 Z5.000000

(End cutting path id: path3665)


(Start cutting path id: path3665)
(Change tool to Cylindrical cutter)

G00 Z5.000000
G00 X25.300230 Y26.437634

G01 Z0.000000 F100.0(Penetrate)
G03 X25.200003 Y26.395924 Z0.000000 I0.000000 J-0.141277 F100.000000
G03 X25.158568 Y26.295422 Z0.000000 I0.101169 J-0.100502
G03 X25.200002 Y26.194918 Z0.000000 I0.142608 J0.000000
G03 X25.300230 Y26.153207 Z0.000000 I0.100228 J0.099564
G03 X25.400790 Y26.194861 Z0.000000 I-0.000000 J0.142213
G03 X25.442444 Y26.295422 Z0.000000 I-0.100562 J0.100561
G03 X25.400790 Y26.395981 Z0.000000 I-0.142210 J0.000000
G03 X25.300230 Y26.437634 Z0.000000 I-0.100560 J-0.100562
G01 X25.300230 Y26.437634 Z0.000000
G00 Z5.000000

(End cutting path id: path3665)


(Start cutting path id: path3665)
(Change tool to Cylindrical cutter)

G00 Z5.000000
G00 X15.066367 Y24.873838

G01 Z0.000000 F100.0(Penetrate)
G03 X14.966140 Y24.832127 Z0.000000 I0.000000 J-0.141275 F100.000000
G03 X14.924705 Y24.731623 Z0.000000 I0.101173 J-0.100504
G03 X14.966197 Y24.631453 Z0.000000 I0.141661 J-0.000000
G03 X15.066367 Y24.589962 Z0.000000 I0.100170 J0.100172
G03 X15.166871 Y24.631396 Z0.000000 I0.000000 J0.142607
G03 X15.208581 Y24.731623 Z0.000000 I-0.099564 J0.100227
G03 X15.166928 Y24.832184 Z0.000000 I-0.142215 J0.000000
G03 X15.066367 Y24.873838 Z0.000000 I-0.100560 J-0.100559
G01 X15.066367 Y24.873838 Z0.000000
G00 Z5.000000

(End cutting path id: path3665)


(Start cutting path id: path3665)
(Change tool to Cylindrical cutter)

G00 Z5.000000
G00 X23.026467 Y24.873838

G01 Z0.000000 F100.0(Penetrate)
G03 X22.925907 Y24.832184 Z0.000000 I-0.000000 J-0.142213 F100.000000
G03 X22.884254 Y24.731623 Z0.000000 I0.100562 J-0.100561
G03 X22.925964 Y24.631396 Z0.000000 I0.141274 J0.000000
G03 X23.026467 Y24.589962 Z0.000000 I0.100503 J0.101173
G03 X23.126970 Y24.631396 Z0.000000 I-0.000000 J0.142607
G03 X23.168681 Y24.731623 Z0.000000 I-0.099564 J0.100227
G03 X23.127027 Y24.832184 Z0.000000 I-0.142215 J0.000000
G03 X23.026467 Y24.873838 Z0.000000 I-0.100560 J-0.100559
G01 X23.026467 Y24.873838 Z0.000000
G00 Z5.000000

(End cutting path id: path3665)


(Start cutting path id: path3665)
(Change tool to Cylindrical cutter)

G00 Z5.000000
G00 X34.046363 Y24.479167

G01 Z0.000000 F100.0(Penetrate)
G03 X33.950050 Y24.454352 Z0.000000 I-0.014008 J-0.144948 F100.000000
G03 X33.864463 Y24.340813 Z0.000000 I0.126140 J-0.184115
G03 X33.891667 Y24.225573 Z0.000000 I0.106838 J-0.035610
G03 X34.041952 Y24.163321 Z0.000000 I0.150285 J0.150279
G03 X34.204022 Y24.217344 Z0.000000 I0.000000 J0.270117
G03 X34.231572 Y24.305535 Z0.000000 I-0.047405 J0.063207
G03 X34.142500 Y24.438165 Z0.000000 I-0.284502 J-0.094841
G03 X34.046363 Y24.479167 Z0.000000 I-0.112815 J-0.131311
G01 X34.046363 Y24.479167 Z0.000000
G00 Z5.000000

(End cutting path id: path3665)


(Start cutting path id: path3665)
(Change tool to Cylindrical cutter)

G00 Z5.000000
G00 X39.087778 Y24.447747

G01 Z0.000000 F100.0(Penetrate)
G03 X38.987217 Y24.406094 Z0.000000 I0.000000 J-0.142217 F100.000000
G03 X38.945563 Y24.305535 Z0.000000 I0.100556 J-0.100559
G03 X38.987217 Y24.204974 Z0.000000 I0.142215 J-0.000000
G03 X39.087778 Y24.163321 Z0.000000 I0.100561 J0.100561
G03 X39.188339 Y24.204974 Z0.000000 I0.000000 J0.142215
G03 X39.229993 Y24.305535 Z0.000000 I-0.100561 J0.100561
G03 X39.188339 Y24.406094 Z0.000000 I-0.142210 J-0.000000
G03 X39.087778 Y24.447747 Z0.000000 I-0.100561 J-0.100564
G01 X39.087778 Y24.447747 Z0.000000
G00 Z5.000000

(End cutting path id: path3665)


(Start cutting path id: path3665)
(Change tool to Cylindrical cutter)

G00 Z5.000000
G00 X17.625109 Y23.168377

G01 Z0.000000 F100.0(Penetrate)
G03 X17.532472 Y23.118800 Z0.000000 I0.000000 J-0.111335 F100.000000
G03 X17.482895 Y22.955057 Z0.000000 I0.245616 J-0.163743
G03 X17.532472 Y22.791314 Z0.000000 I0.295193 J0.000000
G03 X17.625109 Y22.741736 Z0.000000 I0.092636 J0.061757
G03 X17.717745 Y22.791314 Z0.000000 I0.000000 J0.111335
G03 X17.767322 Y22.955057 Z0.000000 I-0.245615 J0.163743
G03 X17.717745 Y23.118800 Z0.000000 I-0.295192 J0.000000
G03 X17.625109 Y23.168377 Z0.000000 I-0.092636 J-0.061757
G01 X17.625109 Y23.168377 Z0.000000
G00 Z5.000000

(End cutting path id: path3665)


(Start cutting path id: path3665)
(Change tool to Cylindrical cutter)

G00 Z5.000000
G00 X20.183299 Y23.168377

G01 Z0.000000 F100.0(Penetrate)
G03 X20.090926 Y23.118757 Z0.000000 I-0.000000 J-0.110791 F100.000000
G03 X20.041636 Y22.955057 Z0.000000 I0.247199 J-0.163701
G03 X20.090926 Y22.791356 Z0.000000 I0.296488 J0.000000
G03 X20.183299 Y22.741736 Z0.000000 I0.092373 J0.061172
G03 X20.275935 Y22.791314 Z0.000000 I0.000000 J0.111335
G03 X20.325512 Y22.955057 Z0.000000 I-0.245615 J0.163743
G03 X20.275935 Y23.118800 Z0.000000 I-0.295192 J0.000000
G03 X20.183299 Y23.168377 Z0.000000 I-0.092636 J-0.061757
G01 X20.183299 Y23.168377 Z0.000000
G00 Z5.000000

(End cutting path id: path3665)


(Start cutting path id: path3665)
(Change tool to Cylindrical cutter)

G00 Z5.000000
G00 X6.254089 Y23.097271

G01 Z0.000000 F100.0(Penetrate)
G03 X6.165834 Y23.088320 Z0.000000 I-0.038296 J-0.061963 F100.000000
G03 X6.111875 Y22.963326 Z0.000000 I0.117792 J-0.124994
G03 X6.162151 Y22.791964 Z0.000000 I0.317175 J-0.000000
G03 X6.254089 Y22.741736 Z0.000000 I0.091937 J0.059028
G03 X6.355936 Y22.782168 Z0.000000 I-0.000000 J0.148493
G03 X6.396302 Y22.875682 Z0.000000 I-0.088136 J0.093514
G03 X6.362572 Y22.990640 Z0.000000 I-0.212764 J0.000000
G03 X6.254089 Y23.097271 Z0.000000 I-0.289127 J-0.185649
G01 X6.254089 Y23.097271 Z0.000000
G00 Z5.000000

(End cutting path id: path3665)


(Start cutting path id: path3665)
(Change tool to Cylindrical cutter)

G00 Z5.000000
G00 X23.028672 Y23.095578

G01 Z0.000000 F100.0(Penetrate)
G03 X22.938743 Y23.087097 Z0.000000 I-0.039358 J-0.063686 F100.000000
G03 X22.884254 Y22.963286 Z0.000000 I0.113417 J-0.123811
G03 X22.968515 Y22.835237 Z0.000000 I0.139427 J0.000000
G03 X23.091510 Y22.873988 Z0.000000 I0.039046 J0.090634
G03 X23.107786 Y22.990861 Z0.000000 I-0.124408 J0.076895
G03 X23.028672 Y23.095578 Z0.000000 I-0.174490 J-0.049584
G01 X23.028672 Y23.095578 Z0.000000
G00 Z5.000000

(End cutting path id: path3665)


(Start cutting path id: path3665)
(Change tool to Cylindrical cutter)

G00 Z5.000000
G00 X25.596784 Y23.090075

G01 Z0.000000 F100.0(Penetrate)
G03 X25.477270 Y23.109282 Z0.000000 I-0.082842 J-0.134041 F100.000000
G03 X25.379054 Y23.038261 Z0.000000 I0.036991 J-0.154580
G03 X25.359595 Y22.918758 Z0.000000 I0.134743 J-0.083276
G03 X25.430317 Y22.820533 Z0.000000 I0.153738 J0.036119
G03 X25.550121 Y22.800964 Z0.000000 I0.083593 J0.135255
G03 X25.648598 Y22.871796 Z0.000000 I-0.036001 J0.153925
G03 X25.667916 Y22.991609 Z0.000000 I-0.134553 J0.083159
G03 X25.596784 Y23.090075 Z0.000000 I-0.154746 J-0.036864
G01 X25.596784 Y23.090075 Z0.000000
G00 Z5.000000

(End cutting path id: path3665)


(Start cutting path id: path3665)
(Change tool to Cylindrical cutter)

G00 Z5.000000
G00 X30.429841 Y23.090075

G01 Z0.000000 F100.0(Penetrate)
G03 X30.310026 Y23.109390 Z0.000000 I-0.083154 J-0.134546 F100.000000
G03 X30.211559 Y23.038261 Z0.000000 I0.036878 J-0.154773
G03 X30.192352 Y22.918749 Z0.000000 I0.134039 J-0.082841
G03 X30.263372 Y22.820533 Z0.000000 I0.154579 J0.036991
G03 X30.382876 Y22.801072 Z0.000000 I0.083280 J0.134750
G03 X30.481104 Y22.871796 Z0.000000 I-0.036111 J0.153731
G03 X30.500673 Y22.991602 Z0.000000 I-0.135259 J0.083595
G03 X30.429841 Y23.090075 Z0.000000 I-0.153910 J-0.035997
G01 X30.429841 Y23.090075 Z0.000000
G00 Z5.000000

(End cutting path id: path3665)


(Start cutting path id: path3665)
(Change tool to Cylindrical cutter)

G00 Z5.000000
G00 X32.988030 Y23.090075

G01 Z0.000000 F100.0(Penetrate)
G03 X32.868516 Y23.109282 Z0.000000 I-0.082843 J-0.134042 F100.000000
G03 X32.770298 Y23.038261 Z0.000000 I0.036990 J-0.154580
G03 X32.750839 Y22.918760 Z0.000000 I0.134745 J-0.083277
G03 X32.821564 Y22.820533 Z0.000000 I0.153730 J0.036113
G03 X32.941064 Y22.801071 Z0.000000 I0.083278 J0.134742
G03 X33.039293 Y22.871796 Z0.000000 I-0.036111 J0.153732
G03 X33.058862 Y22.991602 Z0.000000 I-0.135259 J0.083595
G03 X32.988030 Y23.090075 Z0.000000 I-0.153910 J-0.035997
G01 X32.988030 Y23.090075 Z0.000000
G00 Z5.000000

(End cutting path id: path3665)


(Start cutting path id: path3665)
(Change tool to Cylindrical cutter)

G00 Z5.000000
G00 X12.662518 Y23.089510

G01 Z0.000000 F100.0(Penetrate)
G03 X12.543014 Y23.108971 Z0.000000 I-0.083280 J-0.134750 F100.000000
G03 X12.444787 Y23.038247 Z0.000000 I0.036110 J-0.153727
G03 X12.425333 Y22.918739 Z0.000000 I0.134734 J-0.083271
G03 X12.496050 Y22.820519 Z0.000000 I0.153757 J0.036136
G03 X12.615554 Y22.801058 Z0.000000 I0.083280 J0.134749
G03 X12.713780 Y22.871781 Z0.000000 I-0.036110 J0.153727
G03 X12.733236 Y22.991292 Z0.000000 I-0.134737 J0.083273
G03 X12.662518 Y23.089510 Z0.000000 I-0.153750 J-0.036134
G01 X12.662518 Y23.089510 Z0.000000
G00 Z5.000000

(End cutting path id: path3665)


(Start cutting path id: path3665)
(Change tool to Cylindrical cutter)

G00 Z5.000000
G00 X15.220708 Y23.089510

G01 Z0.000000 F100.0(Penetrate)
G03 X15.101204 Y23.108971 Z0.000000 I-0.083280 J-0.134749 F100.000000
G03 X15.002977 Y23.038247 Z0.000000 I0.036110 J-0.153728
G03 X14.983523 Y22.918738 Z0.000000 I0.134734 J-0.083271
G03 X15.054241 Y22.820519 Z0.000000 I0.153758 J0.036137
G03 X15.174045 Y22.800950 Z0.000000 I0.083593 J0.135256
G03 X15.272522 Y22.871781 Z0.000000 I-0.036000 J0.153922
G03 X15.291727 Y22.991298 Z0.000000 I-0.134037 J0.082840
G03 X15.220708 Y23.089510 Z0.000000 I-0.154580 J-0.036996
G01 X15.220708 Y23.089510 Z0.000000
G00 Z5.000000

(End cutting path id: path3665)


(Start cutting path id: path3665)
(Change tool to Cylindrical cutter)

G00 Z5.000000
G00 X28.285612 Y20.610146

G01 Z0.000000 F100.0(Penetrate)
G03 X28.183764 Y20.569714 Z0.000000 I0.000000 J-0.148493 F100.000000
G03 X28.143399 Y20.476200 Z0.000000 I0.088137 J-0.093513
G03 X28.177128 Y20.361242 Z0.000000 I0.212765 J-0.000000
G03 X28.285612 Y20.254611 Z0.000000 I0.289121 J0.185643
G03 X28.373573 Y20.263662 Z0.000000 I0.038102 J0.061652
G03 X28.427274 Y20.388556 Z0.000000 I-0.118385 J0.124894
G03 X28.377293 Y20.559877 Z0.000000 I-0.318611 J-0.000000
G03 X28.285612 Y20.610146 Z0.000000 I-0.091680 J-0.058470
G01 X28.285612 Y20.610146 Z0.000000
G00 Z5.000000

(End cutting path id: path3665)


(Start cutting path id: path3665)
(Change tool to Cylindrical cutter)

G00 Z5.000000
G00 X9.807773 Y19.330773

G01 Z0.000000 F100.0(Penetrate)
G03 X9.707214 Y19.289120 Z0.000000 I-0.000000 J-0.142215 F100.000000
G03 X9.665560 Y19.188561 Z0.000000 I0.100557 J-0.100559
G03 X9.707213 Y19.088000 Z0.000000 I0.142215 J-0.000000
G03 X9.807773 Y19.046347 Z0.000000 I0.100560 J0.100559
G03 X9.908001 Y19.088058 Z0.000000 I0.000000 J0.141275
G03 X9.949436 Y19.188561 Z0.000000 I-0.101174 J0.100504
G03 X9.908001 Y19.289063 Z0.000000 I-0.142603 J0.000000
G03 X9.807773 Y19.330773 Z0.000000 I-0.100227 J-0.099567
G01 X9.807773 Y19.330773 Z0.000000
G00 Z5.000000

(End cutting path id: path3665)


(Start cutting path id: path3665)
(Change tool to Cylindrical cutter)

G00 Z5.000000
G00 X30.346605 Y16.488157

G01 Z0.000000 F100.0(Penetrate)
G03 X30.182862 Y16.438580 Z0.000000 I-0.000000 J-0.295190 F100.000000
G03 X30.133285 Y16.345943 Z0.000000 I0.061758 J-0.092637
G03 X30.182862 Y16.253306 Z0.000000 I0.111336 J0.000000
G03 X30.346605 Y16.203728 Z0.000000 I0.163743 J0.245612
G03 X30.509954 Y16.253370 Z0.000000 I-0.000000 J0.293576
G03 X30.559375 Y16.345943 Z0.000000 I-0.061991 J0.092573
G03 X30.509954 Y16.438516 Z0.000000 I-0.111412 J0.000000
G03 X30.346605 Y16.488157 Z0.000000 I-0.163349 J-0.243934
G01 X30.346605 Y16.488157 Z0.000000
G00 Z5.000000

(End cutting path id: path3665)


(Start cutting path id: path3665)
(Change tool to Cylindrical cutter)

G00 Z5.000000
G00 X37.444604 Y16.488157

G01 Z0.000000 F100.0(Penetrate)
G03 X37.320017 Y16.434142 Z0.000000 I0.000000 J-0.170688 F100.000000
G03 X37.311212 Y16.345943 Z0.000000 I0.053236 J-0.049854
G03 X37.417842 Y16.237459 Z0.000000 I0.292292 J0.180651
G03 X37.532798 Y16.203728 Z0.000000 I0.114957 J0.179025
G03 X37.626313 Y16.244095 Z0.000000 I-0.000000 J0.128502
G03 X37.666744 Y16.345943 Z0.000000 I-0.108064 J0.101848
G03 X37.616366 Y16.437945 Z0.000000 I-0.109197 J-0.000000
G03 X37.444604 Y16.488157 Z0.000000 I-0.171762 J-0.268664
G01 X37.444604 Y16.488157 Z0.000000
G00 Z5.000000

(End cutting path id: path3665)


(Start cutting path id: path3665)
(Change tool to Cylindrical cutter)

G00 Z5.000000
G00 X6.254089 Y15.493214

G01 Z0.000000 F100.0(Penetrate)
G03 X6.153528 Y15.451560 Z0.000000 I0.000000 J-0.142213 F100.000000
G03 X6.111875 Y15.350999 Z0.000000 I0.100562 J-0.100561
G03 X6.153528 Y15.250439 Z0.000000 I0.142215 J-0.000000
G03 X6.254089 Y15.208785 Z0.000000 I0.100560 J0.100559
G03 X6.354649 Y15.250439 Z0.000000 I0.000000 J0.142213
G03 X6.396302 Y15.350999 Z0.000000 I-0.100562 J0.100561
G03 X6.354649 Y15.451560 Z0.000000 I-0.142215 J-0.000000
G03 X6.254089 Y15.493214 Z0.000000 I-0.100560 J-0.100559
G01 X6.254089 Y15.493214 Z0.000000
G00 Z5.000000

(End cutting path id: path3665)


(Start cutting path id: path3665)
(Change tool to Cylindrical cutter)

G00 Z5.000000
G00 X7.959549 Y15.493214

G01 Z0.000000 F100.0(Penetrate)
G03 X7.858988 Y15.451560 Z0.000000 I0.000000 J-0.142213 F100.000000
G03 X7.817335 Y15.350999 Z0.000000 I0.100562 J-0.100561
G03 X7.858988 Y15.250439 Z0.000000 I0.142215 J0.000000
G03 X7.959549 Y15.208785 Z0.000000 I0.100560 J0.100559
G03 X8.060109 Y15.250439 Z0.000000 I-0.000000 J0.142213
G03 X8.101762 Y15.350999 Z0.000000 I-0.100562 J0.100561
G03 X8.060109 Y15.451560 Z0.000000 I-0.142215 J0.000000
G03 X7.959549 Y15.493214 Z0.000000 I-0.100560 J-0.100559
G01 X7.959549 Y15.493214 Z0.000000
G00 Z5.000000

(End cutting path id: path3665)


(Start cutting path id: path3665)
(Change tool to Cylindrical cutter)

G00 Z5.000000
G00 X12.579284 Y15.493214

G01 Z0.000000 F100.0(Penetrate)
G03 X12.415541 Y15.443636 Z0.000000 I-0.000000 J-0.295190 F100.000000
G03 X12.365964 Y15.350999 Z0.000000 I0.061759 J-0.092637
G03 X12.415541 Y15.258363 Z0.000000 I0.111336 J0.000000
G03 X12.579284 Y15.208785 Z0.000000 I0.163743 J0.245612
G03 X12.743027 Y15.258363 Z0.000000 I-0.000000 J0.295189
G03 X12.792604 Y15.350999 Z0.000000 I-0.061759 J0.092637
G03 X12.743027 Y15.443636 Z0.000000 I-0.111336 J-0.000000
G03 X12.579284 Y15.493214 Z0.000000 I-0.163743 J-0.245611
G01 X12.579284 Y15.493214 Z0.000000
G00 Z5.000000

(End cutting path id: path3665)


(Start cutting path id: path3665)
(Change tool to Cylindrical cutter)

G00 Z5.000000
G00 X15.066367 Y15.493214

G01 Z0.000000 F100.0(Penetrate)
G03 X14.966140 Y15.451503 Z0.000000 I0.000000 J-0.141275 F100.000000
G03 X14.924705 Y15.350999 Z0.000000 I0.101173 J-0.100504
G03 X14.966140 Y15.250496 Z0.000000 I0.142608 J0.000000
G03 X15.066367 Y15.208785 Z0.000000 I0.100228 J0.099565
G03 X15.166928 Y15.250439 Z0.000000 I0.000000 J0.142213
G03 X15.208581 Y15.350999 Z0.000000 I-0.100562 J0.100561
G03 X15.166928 Y15.451560 Z0.000000 I-0.142215 J0.000000
G03 X15.066367 Y15.493214 Z0.000000 I-0.100560 J-0.100559
G01 X15.066367 Y15.493214 Z0.000000
G00 Z5.000000

(End cutting path id: path3665)


(Start cutting path id: path3665)
(Change tool to Cylindrical cutter)

G00 Z5.000000
G00 X17.625109 Y15.493214

G01 Z0.000000 F100.0(Penetrate)
G03 X17.524548 Y15.451560 Z0.000000 I0.000000 J-0.142213 F100.000000
G03 X17.482895 Y15.350999 Z0.000000 I0.100562 J-0.100561
G03 X17.524548 Y15.250439 Z0.000000 I0.142215 J-0.000000
G03 X17.625109 Y15.208785 Z0.000000 I0.100560 J0.100559
G03 X17.725669 Y15.250439 Z0.000000 I-0.000000 J0.142213
G03 X17.767322 Y15.350999 Z0.000000 I-0.100562 J0.100561
G03 X17.725669 Y15.451560 Z0.000000 I-0.142215 J0.000000
G03 X17.625109 Y15.493214 Z0.000000 I-0.100560 J-0.100559
G01 X17.625109 Y15.493214 Z0.000000
G00 Z5.000000

(End cutting path id: path3665)


(Start cutting path id: path3665)
(Change tool to Cylindrical cutter)

G00 Z5.000000
G00 X20.183299 Y15.493214

G01 Z0.000000 F100.0(Penetrate)
G03 X20.083071 Y15.451503 Z0.000000 I0.000000 J-0.141275 F100.000000
G03 X20.041636 Y15.350999 Z0.000000 I0.101174 J-0.100504
G03 X20.083071 Y15.250496 Z0.000000 I0.142608 J0.000000
G03 X20.183299 Y15.208785 Z0.000000 I0.100228 J0.099564
G03 X20.283859 Y15.250439 Z0.000000 I-0.000000 J0.142213
G03 X20.325512 Y15.350999 Z0.000000 I-0.100562 J0.100561
G03 X20.283859 Y15.451560 Z0.000000 I-0.142215 J0.000000
G03 X20.183299 Y15.493214 Z0.000000 I-0.100560 J-0.100559
G01 X20.183299 Y15.493214 Z0.000000
G00 Z5.000000

(End cutting path id: path3665)


(Start cutting path id: path3665)
(Change tool to Cylindrical cutter)

G00 Z5.000000
G00 X23.026467 Y15.493214

G01 Z0.000000 F100.0(Penetrate)
G03 X22.925907 Y15.451560 Z0.000000 I0.000000 J-0.142213 F100.000000
G03 X22.884254 Y15.350999 Z0.000000 I0.100562 J-0.100561
G03 X22.925907 Y15.250439 Z0.000000 I0.142215 J0.000000
G03 X23.026467 Y15.208785 Z0.000000 I0.100560 J0.100559
G03 X23.127027 Y15.250439 Z0.000000 I-0.000000 J0.142213
G03 X23.168681 Y15.350999 Z0.000000 I-0.100562 J0.100561
G03 X23.127027 Y15.451560 Z0.000000 I-0.142215 J0.000000
G03 X23.026467 Y15.493214 Z0.000000 I-0.100560 J-0.100559
G01 X23.026467 Y15.493214 Z0.000000
G00 Z5.000000

(End cutting path id: path3665)


(Start cutting path id: path3665)
(Change tool to Cylindrical cutter)

G00 Z5.000000
G00 X25.592926 Y15.493214

G01 Z0.000000 F100.0(Penetrate)
G03 X25.477968 Y15.459483 Z0.000000 I-0.000000 J-0.212760 F100.000000
G03 X25.371337 Y15.350999 Z0.000000 I0.185656 J-0.289131
G03 X25.380289 Y15.262745 Z0.000000 I0.061966 J-0.038296
G03 X25.505282 Y15.208785 Z0.000000 I0.124994 J0.117788
G03 X25.676644 Y15.259062 Z0.000000 I0.000000 J0.317169
G03 X25.726871 Y15.350999 Z0.000000 I-0.059030 J0.091938
G03 X25.686441 Y15.452846 Z0.000000 I-0.148496 J0.000000
G03 X25.592926 Y15.493214 Z0.000000 I-0.093515 J-0.088134
G01 X25.592926 Y15.493214 Z0.000000
G00 Z5.000000

(End cutting path id: path3665)


(Start cutting path id: path3665)
(Change tool to Cylindrical cutter)

G00 Z5.000000
G00 X37.536659 Y13.992819

G01 Z0.000000 F100.0(Penetrate)
G03 X37.416884 Y14.012396 Z0.000000 I-0.083607 J-0.135329 F100.000000
G03 X37.318377 Y13.941539 Z0.000000 I0.035918 J-0.153835
G03 X37.299169 Y13.822010 Z0.000000 I0.134079 J-0.082854
G03 X37.370190 Y13.723805 Z0.000000 I0.154532 J0.036973
G03 X37.489769 Y13.704408 Z0.000000 I0.083191 J0.134573
G03 X37.587922 Y13.775085 Z0.000000 I-0.036408 J0.154056
G03 X37.607379 Y13.894586 Z0.000000 I-0.134752 J0.083275
G03 X37.536659 Y13.992819 Z0.000000 I-0.153756 J-0.036120
G01 X37.536659 Y13.992819 Z0.000000
G00 Z5.000000

(End cutting path id: path3665)


(Start cutting path id: path3665)
(Change tool to Cylindrical cutter)

G00 Z5.000000
G00 X28.285612 Y12.934486

G01 Z0.000000 F100.0(Penetrate)
G03 X28.185050 Y12.892822 Z0.000000 I-0.000000 J-0.142195 F100.000000
G03 X28.143399 Y12.792246 Z0.000000 I0.100607 J-0.100577
G03 X28.185053 Y12.691686 Z0.000000 I0.142210 J0.000000
G03 X28.285612 Y12.650034 Z0.000000 I0.100560 J0.100563
G03 X28.385839 Y12.691744 Z0.000000 I0.000000 J0.141275
G03 X28.427274 Y12.792246 Z0.000000 I-0.101169 J0.100502
G03 X28.385842 Y12.892765 Z0.000000 I-0.142653 J0.000000
G03 X28.285612 Y12.934486 Z0.000000 I-0.100230 J-0.099535
G01 X28.285612 Y12.934486 Z0.000000
G00 Z5.000000

(End cutting path id: path3665)


(Start cutting path id: path3665)
(Change tool to Cylindrical cutter)

G00 Z5.000000
G00 X7.533459 Y11.441784

G01 Z0.000000 F100.0(Penetrate)
G03 X7.445246 Y11.432967 Z0.000000 I-0.038346 J-0.062044 F100.000000
G03 X7.391246 Y11.308378 Z0.000000 I0.116727 J-0.124589
G03 X7.441529 Y11.137023 Z0.000000 I0.317113 J0.000000
G03 X7.533459 Y11.086805 Z0.000000 I0.091930 J0.059036
G03 X7.635256 Y11.127007 Z0.000000 I-0.000000 J0.148982
G03 X7.675673 Y11.220183 Z0.000000 I-0.087195 J0.093176
G03 X7.641938 Y11.335158 Z0.000000 I-0.212793 J-0.000000
G03 X7.533459 Y11.441784 Z0.000000 I-0.289117 J-0.185645
G01 X7.533459 Y11.441784 Z0.000000
G00 Z5.000000

(End cutting path id: path3665)


(Start cutting path id: path3665)
(Change tool to Cylindrical cutter)

G00 Z5.000000
G00 X32.988030 Y11.434729

G01 Z0.000000 F100.0(Penetrate)
G03 X32.868540 Y11.454211 Z0.000000 I-0.083304 J-0.134755 F100.000000
G03 X32.770298 Y11.383477 Z0.000000 I0.036050 J-0.153661
G03 X32.750731 Y11.263668 Z0.000000 I0.135270 J-0.083595
G03 X32.821564 Y11.165178 Z0.000000 I0.153956 J0.036008
G03 X32.941057 Y11.145952 Z0.000000 I0.082859 J0.134030
G03 X33.039293 Y11.216994 Z0.000000 I-0.036934 J0.154513
G03 X33.058750 Y11.336496 Z0.000000 I-0.134752 J0.083275
G03 X32.988030 Y11.434729 Z0.000000 I-0.153756 J-0.036120
G01 X32.988030 Y11.434729 Z0.000000
G00 Z5.000000

(End cutting path id: path3665)


(Start cutting path id: path3665)
(Change tool to Cylindrical cutter)

G00 Z5.000000
G00 X15.061406 Y11.434729

G01 Z0.000000 F100.0(Penetrate)
G03 X14.967754 Y11.354595 Z0.000000 I0.116775 J-0.231268 F100.000000
G03 X14.924705 Y11.220861 Z0.000000 I0.186201 J-0.133734
G03 X15.028890 Y11.102339 Z0.000000 I0.119508 J0.000000
G03 X15.252127 Y11.178414 Z0.000000 I0.034264 J0.265026
G03 X15.295695 Y11.274807 Z0.000000 I-0.105877 J0.105897
G03 X15.265908 Y11.393948 Z0.000000 I-0.201819 J0.012835
G03 X15.172623 Y11.453942 Z0.000000 I-0.109415 J-0.067606
G03 X15.061407 Y11.434729 Z0.000000 I-0.024198 J-0.191419
G01 X15.061406 Y11.434729 Z0.000000
G00 Z5.000000

(End cutting path id: path3665)


(Start cutting path id: path3665)
(Change tool to Cylindrical cutter)

G00 Z5.000000
G00 X19.330569 Y10.660847

G01 Z0.000000 F100.0(Penetrate)
G03 X19.230006 Y10.619183 Z0.000000 I-0.000000 J-0.142195 F100.000000
G03 X19.188355 Y10.518607 Z0.000000 I0.100608 J-0.100576
G03 X19.230009 Y10.418048 Z0.000000 I0.142210 J0.000000
G03 X19.330569 Y10.376395 Z0.000000 I0.100560 J0.100562
G03 X19.431129 Y10.418048 Z0.000000 I0.000000 J0.142215
G03 X19.472782 Y10.518607 Z0.000000 I-0.100557 J0.100559
G03 X19.431119 Y10.619196 Z0.000000 I-0.142259 J0.000000
G03 X19.330569 Y10.660847 Z0.000000 I-0.100550 J-0.100544
G01 X19.330569 Y10.660847 Z0.000000
G00 Z5.000000

(End cutting path id: path3665)


(Start cutting path id: path3665)
(Change tool to Cylindrical cutter)

G00 Z5.000000
G00 X19.330569 Y8.102644

G01 Z0.000000 F100.0(Penetrate)
G03 X19.230009 Y8.060991 Z0.000000 I0.000000 J-0.142215 F100.000000
G03 X19.188355 Y7.960432 Z0.000000 I0.100557 J-0.100559
G03 X19.230009 Y7.859873 Z0.000000 I0.142210 J0.000000
G03 X19.330569 Y7.818220 Z0.000000 I0.100560 J0.100562
G03 X19.431129 Y7.859873 Z0.000000 I0.000000 J0.142215
G03 X19.472782 Y7.960432 Z0.000000 I-0.100557 J0.100559
G03 X19.431129 Y8.060991 Z0.000000 I-0.142211 J0.000000
G03 X19.330569 Y8.102644 Z0.000000 I-0.100560 J-0.100562
G01 X19.330569 Y8.102644 Z0.000000
G00 Z5.000000

(End cutting path id: path3665)


(Footer)
M5
G00 X0.0000 Y0.0000
M2
(Using default footer. To add your own footer create file "footer" in the output dir.)
(end)
%