%
(1001)
(T1  D=3.454 CR=0 TAPER=118deg - ZMIN=-3.838 - drill)
G90 G94
G17
G21
G28 G91 Z0
G90

(Drill2)
M9
T1 M6
S3510 M3
G54
M8
G0 X79.75 Y8.75
Z15
Z5
G1 Z-3.838 F177.8
G0 Z5
X8.75
G1 Z-3.838 F177.8
G0 Z5
Y79.75
G1 Z-3.838 F177.8
G0 Z5
X79.75
G1 Z-3.838 F177.8
G0 Z5
Z15
M9
G28 G91 Z0
G90
G28 G91 X0 Y0
G90
M30
%
