; generated by Slic3r 1.2.9 on 2018-05-20 at 12:37:04

; external perimeters extrusion width = 0.40mm
; perimeters extrusion width = 0.40mm
; infill extrusion width = 0.40mm
; solid infill extrusion width = 0.40mm
; top infill extrusion width = 0.40mm

M107
M190 S55 ; set bed temperature
G28 ; home all axes
G90 ; use absolute coordinates
G21 ; set units to millimeters
G92 E0
M82 ; use absolute distances for extrusion
M109 S220 ; wait for temperature to be reached
G1 E5 F400 ; prime the nozzle
G21 ; set units to millimeters
G90 ; use absolute coordinates
M82 ; use absolute distances for extrusion
G92 E0
G1 E-1.20000 F1800.00000
G92 E0
G1 Z0.100 F9000.000
G1 Z0.200 F9000.000
G1 Z0.300 F9000.000
G1 X64.410 Y64.336 F9000.000
G1 Z0.200 F9000.000
G1 E1.20000 F1800.00000
M204 S500
G1 X66.192 Y62.642 E1.31814 F2520.000
G1 X68.054 Y61.038 E1.43628
G1 X69.992 Y59.526 E1.55443
G1 X72.002 Y58.111 E1.67257
G1 X74.078 Y56.795 E1.79071
G1 X76.216 Y55.583 E1.90886
G1 X78.411 Y54.475 E2.02700
G1 X80.656 Y53.477 E2.14514
G1 X82.948 Y52.589 E2.26328
G1 X85.582 Y51.724 E2.39652
G1 X87.964 Y51.076 E2.51519
G1 X90.376 Y50.545 E2.63386
G1 X92.810 Y50.133 E2.75254
G1 X95.262 Y49.840 E2.87121
G1 X97.725 Y49.668 E2.98989
G1 X100.188 Y49.617 E3.10829
G1 X102.661 Y49.687 E3.22724
G1 X105.123 Y49.878 E3.34591
G1 X107.572 Y50.189 E3.46459
G1 X110.003 Y50.620 E3.58326
G1 X112.410 Y51.170 E3.70193
G1 X114.788 Y51.836 E3.82061
G1 X117.052 Y52.589 E3.93527
G1 X119.344 Y53.477 E4.05342
G1 X121.589 Y54.475 E4.17156
G1 X123.784 Y55.583 E4.28970
G1 X125.922 Y56.795 E4.40785
G1 X127.998 Y58.111 E4.52599
G1 X130.008 Y59.526 E4.64413
G1 X131.946 Y61.038 E4.76227
G1 X133.808 Y62.642 E4.88041
G1 X135.664 Y64.410 E5.00364
G1 X137.358 Y66.192 E5.12178
G1 X138.962 Y68.054 E5.23992
G1 X140.474 Y69.992 E5.35807
G1 X141.889 Y72.002 E5.47621
G1 X143.205 Y74.078 E5.59435
G1 X144.417 Y76.216 E5.71250
G1 X145.525 Y78.411 E5.83064
G1 X146.523 Y80.657 E5.94878
G1 X147.411 Y82.949 E6.06692
G1 X148.276 Y85.582 E6.20015
G1 X148.924 Y87.964 E6.31883
G1 X149.455 Y90.376 E6.43750
G1 X149.867 Y92.810 E6.55617
G1 X150.160 Y95.262 E6.67485
G1 X150.332 Y97.725 E6.79352
G1 X150.383 Y100.193 E6.91220
G1 X150.313 Y102.661 E7.03087
G1 X150.122 Y105.123 E7.14955
G1 X149.811 Y107.572 E7.26822
G1 X149.380 Y110.003 E7.38689
G1 X148.830 Y112.411 E7.50557
G1 X148.164 Y114.788 E7.62424
G1 X147.411 Y117.051 E7.73890
G1 X146.523 Y119.343 E7.85705
G1 X145.525 Y121.589 E7.97519
G1 X144.417 Y123.784 E8.09333
G1 X143.205 Y125.922 E8.21148
G1 X141.889 Y127.998 E8.32962
G1 X140.474 Y130.008 E8.44776
G1 X138.962 Y131.946 E8.56591
G1 X137.358 Y133.808 E8.68405
G1 X135.590 Y135.664 E8.80727
G1 X133.808 Y137.358 E8.92541
G1 X131.946 Y138.962 E9.04355
G1 X130.008 Y140.474 E9.16170
G1 X127.998 Y141.889 E9.27984
G1 X125.922 Y143.205 E9.39799
G1 X123.784 Y144.417 E9.51613
G1 X121.589 Y145.525 E9.63427
G1 X119.343 Y146.523 E9.75241
G1 X117.051 Y147.411 E9.87056
G1 X114.418 Y148.276 E10.00378
G1 X112.036 Y148.924 E10.12246
G1 X109.624 Y149.455 E10.24113
G1 X107.190 Y149.867 E10.35981
G1 X104.738 Y150.160 E10.47848
G1 X102.275 Y150.332 E10.59716
G1 X99.807 Y150.383 E10.71583
G1 X97.339 Y150.313 E10.83451
G1 X94.877 Y150.122 E10.95318
G1 X92.428 Y149.811 E11.07186
G1 X89.997 Y149.380 E11.19053
G1 X87.589 Y148.830 E11.30921
G1 X85.212 Y148.164 E11.42788
G1 X82.949 Y147.411 E11.54254
G1 X80.657 Y146.523 E11.66068
G1 X78.411 Y145.525 E11.77882
G1 X76.216 Y144.417 E11.89697
G1 X74.078 Y143.205 E12.01511
G1 X72.002 Y141.889 E12.13325
G1 X69.992 Y140.474 E12.25139
G1 X68.054 Y138.962 E12.36954
G1 X66.192 Y137.358 E12.48768
G1 X64.336 Y135.590 E12.61090
G1 X62.642 Y133.808 E12.72905
G1 X61.038 Y131.946 E12.84719
G1 X59.526 Y130.008 E12.96533
G1 X58.111 Y127.998 E13.08348
G1 X56.795 Y125.922 E13.20162
G1 X55.583 Y123.784 E13.31976
G1 X54.475 Y121.589 E13.43791
G1 X53.477 Y119.344 E13.55604
G1 X52.589 Y117.052 E13.67419
G1 X51.724 Y114.418 E13.80742
G1 X51.076 Y112.036 E13.92609
G1 X50.545 Y109.624 E14.04477
G1 X50.133 Y107.190 E14.16344
G1 X49.840 Y104.738 E14.28212
G1 X49.668 Y102.275 E14.40079
G1 X49.617 Y99.807 E14.51947
G1 X49.687 Y97.339 E14.63814
G1 X49.878 Y94.877 E14.75681
G1 X50.189 Y92.428 E14.87549
G1 X50.620 Y89.997 E14.99416
G1 X51.170 Y87.589 E15.11284
G1 X51.836 Y85.212 E15.23151
G1 X52.589 Y82.948 E15.34618
G1 X53.477 Y80.656 E15.46432
G1 X54.475 Y78.411 E15.58246
G1 X55.583 Y76.216 E15.70060
G1 X56.795 Y74.078 E15.81875
G1 X58.111 Y72.002 E15.93689
G1 X59.526 Y69.992 E16.05503
G1 X61.038 Y68.054 E16.17318
G1 X62.642 Y66.192 E16.29132
G1 X64.368 Y64.378 E16.41165
G1 X64.855 Y64.780 F9000.000
G1 X66.615 Y63.107 E16.52836 F2520.000
G1 X68.454 Y61.522 E16.64506
G1 X70.369 Y60.029 E16.76177
G1 X72.354 Y58.631 E16.87848
G1 X74.405 Y57.332 E16.99518
G1 X76.517 Y56.134 E17.11189
G1 X78.685 Y55.041 E17.22859
G1 X80.904 Y54.054 E17.34530
G1 X83.168 Y53.178 E17.46200
G1 X85.749 Y52.330 E17.59259
G1 X88.102 Y51.689 E17.70979
G1 X90.483 Y51.164 E17.82698
G1 X92.887 Y50.756 E17.94418
G1 X95.308 Y50.467 E18.06137
G1 X97.740 Y50.297 E18.17857
G1 X100.173 Y50.245 E18.29551
G1 X102.615 Y50.314 E18.41296
G1 X105.046 Y50.502 E18.53015
G1 X107.465 Y50.808 E18.64735
G1 X109.866 Y51.233 E18.76454
G1 X112.243 Y51.775 E18.88174
G1 X114.591 Y52.433 E18.99893
G1 X116.832 Y53.178 E19.11243
G1 X119.096 Y54.054 E19.22914
G1 X121.315 Y55.041 E19.34584
G1 X123.483 Y56.134 E19.46255
G1 X125.595 Y57.332 E19.57926
G1 X127.646 Y58.631 E19.69596
G1 X129.631 Y60.029 E19.81267
G1 X131.546 Y61.522 E19.92937
G1 X133.385 Y63.107 E20.04608
G1 X135.220 Y64.855 E20.16786
G1 X136.893 Y66.615 E20.28457
G1 X138.478 Y68.454 E20.40127
G1 X139.971 Y70.369 E20.51798
G1 X141.369 Y72.354 E20.63468
G1 X142.668 Y74.405 E20.75139
G1 X143.866 Y76.517 E20.86810
G1 X144.959 Y78.685 E20.98480
G1 X145.946 Y80.904 E21.10151
G1 X146.822 Y83.168 E21.21821
G1 X147.670 Y85.749 E21.34880
G1 X148.311 Y88.102 E21.46600
G1 X148.836 Y90.483 E21.58319
G1 X149.244 Y92.887 E21.70039
G1 X149.533 Y95.308 E21.81758
G1 X149.703 Y97.740 E21.93477
G1 X149.754 Y100.178 E22.05197
G1 X149.686 Y102.615 E22.16916
G1 X149.498 Y105.046 E22.28636
G1 X149.192 Y107.465 E22.40355
G1 X148.767 Y109.866 E22.52074
G1 X148.225 Y112.243 E22.63794
G1 X147.567 Y114.591 E22.75514
G1 X146.822 Y116.832 E22.86864
G1 X145.946 Y119.096 E22.98534
G1 X144.959 Y121.315 E23.10205
G1 X143.866 Y123.483 E23.21876
G1 X142.668 Y125.595 E23.33546
G1 X141.369 Y127.646 E23.45217
G1 X139.971 Y129.631 E23.56887
G1 X138.478 Y131.546 E23.68558
G1 X136.893 Y133.385 E23.80229
G1 X135.145 Y135.220 E23.92407
G1 X133.385 Y136.893 E24.04077
G1 X131.546 Y138.478 E24.15748
G1 X129.631 Y139.971 E24.27419
G1 X127.646 Y141.369 E24.39089
G1 X125.595 Y142.668 E24.50760
G1 X123.483 Y143.866 E24.62430
G1 X121.315 Y144.959 E24.74101
G1 X119.096 Y145.946 E24.85771
G1 X116.832 Y146.822 E24.97442
G1 X114.251 Y147.670 E25.10500
G1 X111.898 Y148.311 E25.22220
G1 X109.517 Y148.836 E25.33940
G1 X107.113 Y149.244 E25.45659
G1 X104.692 Y149.533 E25.57378
G1 X102.260 Y149.703 E25.69098
G1 X99.822 Y149.754 E25.80818
G1 X97.385 Y149.686 E25.92537
G1 X94.954 Y149.498 E26.04256
G1 X92.535 Y149.192 E26.15976
G1 X90.134 Y148.767 E26.27695
G1 X87.757 Y148.225 E26.39415
G1 X85.409 Y147.567 E26.51134
G1 X83.168 Y146.822 E26.62484
G1 X80.904 Y145.946 E26.74155
G1 X78.685 Y144.959 E26.85825
G1 X76.517 Y143.866 E26.97496
G1 X74.405 Y142.668 E27.09167
G1 X72.354 Y141.369 E27.20837
G1 X70.369 Y139.971 E27.32508
G1 X68.454 Y138.478 E27.44179
G1 X66.615 Y136.893 E27.55849
G1 X64.780 Y135.145 E27.68027
G1 X63.107 Y133.385 E27.79698
G1 X61.522 Y131.546 E27.91368
G1 X60.029 Y129.631 E28.03039
G1 X58.631 Y127.646 E28.14709
G1 X57.332 Y125.595 E28.26380
G1 X56.134 Y123.483 E28.38050
G1 X55.041 Y121.315 E28.49721
G1 X54.054 Y119.096 E28.61391
G1 X53.178 Y116.832 E28.73062
G1 X52.330 Y114.251 E28.86121
G1 X51.689 Y111.898 E28.97841
G1 X51.164 Y109.517 E29.09560
G1 X50.756 Y107.113 E29.21280
G1 X50.467 Y104.692 E29.32999
G1 X50.297 Y102.260 E29.44719
G1 X50.246 Y99.822 E29.56438
G1 X50.314 Y97.385 E29.68157
G1 X50.502 Y94.954 E29.79877
G1 X50.808 Y92.535 E29.91596
G1 X51.233 Y90.134 E30.03316
G1 X51.775 Y87.757 E30.15035
G1 X52.433 Y85.409 E30.26755
G1 X53.178 Y83.168 E30.38105
G1 X54.054 Y80.904 E30.49776
G1 X55.041 Y78.685 E30.61446
G1 X56.134 Y76.517 E30.73117
G1 X57.332 Y74.405 E30.84788
G1 X58.631 Y72.354 E30.96458
G1 X60.029 Y70.369 E31.08128
G1 X61.522 Y68.454 E31.19799
G1 X63.107 Y66.615 E31.31469
G1 X64.812 Y64.822 E31.43359
G1 X65.299 Y65.224 F9000.000
G1 X67.037 Y63.572 E31.54886 F2520.000
G1 X68.854 Y62.007 E31.66413
G1 X70.745 Y60.532 E31.77940
G1 X72.706 Y59.152 E31.89467
G1 X74.732 Y57.868 E32.00993
G1 X76.818 Y56.685 E32.12520
G1 X78.960 Y55.606 E32.24047
G1 X81.151 Y54.632 E32.35574
G1 X83.388 Y53.766 E32.47101
G1 X85.917 Y52.935 E32.59896
G1 X88.239 Y52.302 E32.71467
G1 X90.590 Y51.783 E32.83039
G1 X92.964 Y51.380 E32.94610
G1 X95.354 Y51.094 E33.06182
G1 X97.756 Y50.925 E33.17753
G1 X100.158 Y50.874 E33.29302
G1 X102.569 Y50.941 E33.40896
G1 X104.969 Y51.125 E33.52468
G1 X107.358 Y51.428 E33.64039
G1 X109.728 Y51.846 E33.75611
G1 X112.076 Y52.381 E33.87182
G1 X114.394 Y53.030 E33.98754
G1 X116.612 Y53.766 E34.09988
G1 X118.849 Y54.632 E34.21515
G1 X121.040 Y55.606 E34.33042
G1 X123.182 Y56.685 E34.44569
G1 X125.268 Y57.868 E34.56096
G1 X127.294 Y59.152 E34.67622
G1 X129.255 Y60.532 E34.79149
G1 X131.146 Y62.007 E34.90676
G1 X132.963 Y63.572 E35.02203
G1 X134.776 Y65.299 E35.14237
G1 X136.428 Y67.037 E35.25764
G1 X137.993 Y68.854 E35.37290
G1 X139.468 Y70.745 E35.48818
G1 X140.848 Y72.706 E35.60345
G1 X142.132 Y74.732 E35.71871
G1 X143.315 Y76.818 E35.83398
G1 X144.394 Y78.960 E35.94925
G1 X145.368 Y81.151 E36.06452
G1 X146.234 Y83.388 E36.17979
G1 X147.065 Y85.917 E36.30773
G1 X147.698 Y88.239 E36.42345
G1 X148.217 Y90.590 E36.53917
G1 X148.620 Y92.964 E36.65488
G1 X148.906 Y95.354 E36.77060
G1 X149.075 Y97.755 E36.88631
G1 X149.126 Y100.162 E37.00203
G1 X149.059 Y102.569 E37.11774
G1 X148.875 Y104.969 E37.23346
G1 X148.572 Y107.358 E37.34917
G1 X148.154 Y109.728 E37.46488
G1 X147.619 Y112.076 E37.58060
G1 X146.970 Y114.394 E37.69631
G1 X146.234 Y116.612 E37.80866
G1 X145.368 Y118.849 E37.92392
G1 X144.394 Y121.040 E38.03919
G1 X143.315 Y123.182 E38.15446
G1 X142.132 Y125.268 E38.26973
G1 X140.848 Y127.294 E38.38500
G1 X139.468 Y129.255 E38.50026
G1 X137.993 Y131.146 E38.61554
G1 X136.428 Y132.963 E38.73081
G1 X134.701 Y134.776 E38.85115
G1 X132.963 Y136.428 E38.96641
G1 X131.146 Y137.993 E39.08168
G1 X129.255 Y139.468 E39.19696
G1 X127.294 Y140.848 E39.31222
G1 X125.268 Y142.132 E39.42749
G1 X123.182 Y143.315 E39.54276
G1 X121.040 Y144.394 E39.65803
G1 X118.849 Y145.368 E39.77329
G1 X116.612 Y146.234 E39.88856
G1 X114.083 Y147.065 E40.01651
G1 X111.761 Y147.698 E40.13223
G1 X109.410 Y148.217 E40.24794
G1 X107.036 Y148.620 E40.36366
G1 X104.646 Y148.906 E40.47937
G1 X102.245 Y149.075 E40.59509
G1 X99.838 Y149.126 E40.71080
G1 X97.431 Y149.059 E40.82652
G1 X95.031 Y148.875 E40.94223
G1 X92.642 Y148.572 E41.05795
G1 X90.272 Y148.154 E41.17366
G1 X87.924 Y147.619 E41.28938
G1 X85.606 Y146.970 E41.40509
G1 X83.388 Y146.234 E41.51743
G1 X81.151 Y145.368 E41.63270
G1 X78.960 Y144.394 E41.74797
G1 X76.818 Y143.315 E41.86324
G1 X74.732 Y142.132 E41.97851
G1 X72.706 Y140.848 E42.09377
G1 X70.745 Y139.468 E42.20904
G1 X68.854 Y137.993 E42.32432
G1 X67.037 Y136.428 E42.43958
G1 X65.224 Y134.701 E42.55992
G1 X63.572 Y132.963 E42.67519
G1 X62.007 Y131.146 E42.79046
G1 X60.532 Y129.255 E42.90573
G1 X59.152 Y127.294 E43.02100
G1 X57.868 Y125.268 E43.13626
G1 X56.685 Y123.182 E43.25153
G1 X55.606 Y121.040 E43.36680
G1 X54.632 Y118.849 E43.48207
G1 X53.766 Y116.612 E43.59734
G1 X52.935 Y114.083 E43.72529
G1 X52.302 Y111.761 E43.84101
G1 X51.783 Y109.410 E43.95672
G1 X51.380 Y107.036 E44.07244
G1 X51.094 Y104.646 E44.18815
G1 X50.925 Y102.244 E44.30386
G1 X50.874 Y99.838 E44.41958
G1 X50.941 Y97.431 E44.53529
G1 X51.125 Y95.031 E44.65101
G1 X51.428 Y92.642 E44.76672
G1 X51.846 Y90.272 E44.88244
G1 X52.381 Y87.924 E44.99815
G1 X53.030 Y85.606 E45.11387
G1 X53.766 Y83.388 E45.22621
G1 X54.632 Y81.151 E45.34148
G1 X55.606 Y78.960 E45.45675
G1 X56.685 Y76.818 E45.57202
G1 X57.868 Y74.732 E45.68729
G1 X59.152 Y72.706 E45.80255
G1 X60.532 Y70.745 E45.91782
G1 X62.007 Y68.854 E46.03309
G1 X63.572 Y67.037 E46.14836
G1 X65.256 Y65.267 E46.26582
G1 E45.06582 F1800.00000
G92 E0
G1 Z0.300 F9000.000
G1 X67.557 Y67.452 F9000.000
G1 Z0.200 F9000.000
G1 E1.20000 F1800.00000
G1 X69.188 Y65.904 E1.30807 F2520.000
G1 X70.892 Y64.438 E1.41614
G1 X72.667 Y63.057 E1.52422
G1 X74.506 Y61.764 E1.63229
G1 X76.407 Y60.563 E1.74036
G1 X78.364 Y59.456 E1.84844
G1 X80.373 Y58.446 E1.95651
G1 X82.429 Y57.536 E2.06458
G1 X84.527 Y56.727 E2.17267
G1 X86.721 Y56.005 E2.28367
G1 X88.892 Y55.407 E2.39192
G1 X91.090 Y54.916 E2.50016
G1 X93.309 Y54.534 E2.60841
G1 X95.545 Y54.261 E2.71665
G1 X97.791 Y54.097 E2.82490
G1 X100.040 Y54.044 E2.93306
G1 X102.294 Y54.102 E3.04139
G1 X104.539 Y54.269 E3.14964
G1 X106.774 Y54.546 E3.25788
G1 X108.993 Y54.933 E3.36613
G1 X111.190 Y55.427 E3.47438
G1 X113.360 Y56.029 E3.58262
G1 X115.473 Y56.727 E3.68955
G1 X117.571 Y57.536 E3.79764
G1 X119.627 Y58.446 E3.90571
G1 X121.636 Y59.456 E4.01379
G1 X123.593 Y60.563 E4.12186
G1 X125.494 Y61.764 E4.22993
G1 X127.333 Y63.057 E4.33801
G1 X129.108 Y64.438 E4.44608
G1 X130.812 Y65.905 E4.55415
G1 X132.548 Y67.557 E4.66934
G1 X134.095 Y69.188 E4.77741
G1 X135.562 Y70.892 E4.88548
G1 X136.943 Y72.667 E4.99356
G1 X138.236 Y74.506 E5.10163
G1 X139.437 Y76.407 E5.20970
G1 X140.544 Y78.364 E5.31777
G1 X141.554 Y80.373 E5.42585
G1 X142.464 Y82.429 E5.53392
G1 X143.273 Y84.527 E5.64201
G1 X143.995 Y86.721 E5.75301
G1 X144.593 Y88.892 E5.86125
G1 X145.084 Y91.090 E5.96950
G1 X145.466 Y93.309 E6.07775
G1 X145.739 Y95.545 E6.18599
G1 X145.903 Y97.791 E6.29424
G1 X145.956 Y100.042 E6.40248
G1 X145.898 Y102.294 E6.51073
G1 X145.731 Y104.539 E6.61898
G1 X145.454 Y106.774 E6.72722
G1 X145.067 Y108.993 E6.83547
G1 X144.573 Y111.190 E6.94371
G1 X143.971 Y113.360 E7.05196
G1 X143.273 Y115.473 E7.15889
G1 X142.464 Y117.571 E7.26698
G1 X141.554 Y119.627 E7.37505
G1 X140.544 Y121.636 E7.48313
G1 X139.437 Y123.593 E7.59120
G1 X138.236 Y125.494 E7.69927
G1 X136.943 Y127.333 E7.80734
G1 X135.562 Y129.108 E7.91542
G1 X134.095 Y130.812 E8.02349
G1 X132.443 Y132.548 E8.13868
G1 X130.812 Y134.095 E8.24675
G1 X129.108 Y135.562 E8.35482
G1 X127.333 Y136.943 E8.46289
G1 X125.494 Y138.236 E8.57096
G1 X123.593 Y139.437 E8.67904
G1 X121.636 Y140.544 E8.78711
G1 X119.627 Y141.554 E8.89518
G1 X117.571 Y142.464 E9.00326
G1 X115.473 Y143.273 E9.11135
G1 X113.279 Y143.995 E9.22235
G1 X111.108 Y144.593 E9.33059
G1 X108.910 Y145.084 E9.43884
G1 X106.691 Y145.466 E9.54708
G1 X104.455 Y145.739 E9.65533
G1 X102.209 Y145.903 E9.76358
G1 X99.958 Y145.956 E9.87182
G1 X97.706 Y145.898 E9.98007
G1 X95.460 Y145.731 E10.08831
G1 X93.226 Y145.454 E10.19656
G1 X91.007 Y145.067 E10.30480
G1 X88.810 Y144.573 E10.41305
G1 X86.640 Y143.971 E10.52130
G1 X84.527 Y143.273 E10.62822
G1 X82.429 Y142.464 E10.73632
G1 X80.373 Y141.554 E10.84439
G1 X78.364 Y140.544 E10.95246
G1 X76.407 Y139.437 E11.06054
G1 X74.506 Y138.236 E11.16861
G1 X72.667 Y136.943 E11.27668
G1 X70.892 Y135.562 E11.38476
G1 X69.188 Y134.095 E11.49283
G1 X67.452 Y132.443 E11.60801
G1 X65.905 Y130.812 E11.71608
G1 X64.438 Y129.108 E11.82416
G1 X63.057 Y127.333 E11.93223
G1 X61.764 Y125.494 E12.04030
G1 X60.563 Y123.593 E12.14837
G1 X59.456 Y121.636 E12.25645
G1 X58.446 Y119.627 E12.36452
G1 X57.536 Y117.571 E12.47259
G1 X56.727 Y115.473 E12.58069
G1 X56.005 Y113.279 E12.69168
G1 X55.407 Y111.108 E12.79993
G1 X54.916 Y108.910 E12.90818
G1 X54.534 Y106.691 E13.01642
G1 X54.261 Y104.455 E13.12467
G1 X54.097 Y102.209 E13.23291
G1 X54.044 Y99.958 E13.34116
G1 X54.102 Y97.706 E13.44940
G1 X54.269 Y95.460 E13.55765
G1 X54.546 Y93.226 E13.66590
G1 X54.933 Y91.007 E13.77414
G1 X55.427 Y88.810 E13.88239
G1 X56.029 Y86.640 E13.99063
G1 X56.727 Y84.527 E14.09756
G1 X57.536 Y82.429 E14.20566
